#
# mycomment
#
# Toolpath Name = 2D_Face_front
# Head angle    = 30 deg
#
# Set TCP
# set_tcp(p[0.000000,0.000000,0.000000,0.000000000,0.000000000,0.000000000])
#
# Set Part Coordinate System
# global Ref_frame = p[0.000000,0.000000,0.000000,0,0,0]
#
# Set Payload
# set_payload(0)
#
# Spindle Speed      = 5000 RPM
# Tool               = 2
# Motion Settings
acc_1 = 1 # Robot acceleration
vel_1 = 0.2 # Robot movej tool speed
fed3_1 = 0.0166667 # Finish
fed4_1 = 0.0166667 # Lead-in
fed5_1 = 0.0166667 # Lead-out
fed8_1 = 0.0083333 # Plunge
fed9_1 = 0.0166667 # High Feed-rapid
rad_smooth_1 = 0.000005 # Robot radius smoothing
#
#
# Toolpath Approach Pose
# movej([0.00000000,0.00000000,0.00000000,0.00000000,0.00000000,0.00000000],a=acc_1,v=vel_1,r=rad_smooth_1)
# First Toolpath Point
movel(pose_trans(Ref_frame,p[0.053984,-0.029817,0.015539,0.548145684,-0.127197648,0.474708078]),a=acc_1,v=fed9_1,r=rad_smooth_1)
movel(pose_trans(Ref_frame,p[0.053984,-0.024817,0.006879,0.548145684,-0.127197648,0.474708078]),a=acc_1,v=fed9_1,r=rad_smooth_1)
# Plunge Move Starts
movel(pose_trans(Ref_frame,p[0.053984,-0.020744,-0.000175,0.548145684,-0.127197648,0.474708078]),a=acc_1,v=fed8_1,r=rad_smooth_1)
# Lead In Move Starts
movel(pose_trans(Ref_frame,p[0.053705,-0.020407,-0.000758,0.548145684,-0.127197648,0.474708078]),a=acc_1,v=fed4_1,r=rad_smooth_1)
movel(pose_trans(Ref_frame,p[0.053031,-0.020268,-0.001000,0.548145684,-0.127197648,0.474708078]),a=acc_1,v=fed4_1,r=rad_smooth_1)
# Cutting Move Starts
movel(pose_trans(Ref_frame,p[-0.055536,-0.020268,-0.001000,0.548145684,-0.127197648,0.474708078]),a=acc_1,v=fed3_1,r=rad_smooth_1)
# Lead Out Move Starts
movel(pose_trans(Ref_frame,p[-0.056209,-0.020407,-0.000758,0.548145684,-0.127197648,0.474708078]),a=acc_1,v=fed5_1,r=rad_smooth_1)
movel(pose_trans(Ref_frame,p[-0.056488,-0.020744,-0.000175,0.548145684,-0.127197648,0.474708078]),a=acc_1,v=fed5_1,r=rad_smooth_1)
# Rapid Move Starts
movel(pose_trans(Ref_frame,p[-0.056488,-0.029817,0.015539,0.548145684,-0.127197648,0.474708078]),a=acc_1,v=fed9_1,r=rad_smooth_1)
#
# Toolpath Name = 2D_Face_left
# Head angle    = 30 deg
#
# Spindle Speed      = 5000 RPM
# Tool               = 2
# Motion Settings
acc_2 = 1 # Robot acceleration
vel_2 = 0.2 # Robot movej tool speed
fed3_2 = 0.0166667 # Finish
fed4_2 = 0.0166667 # Lead-in
fed5_2 = 0.0166667 # Lead-out
fed8_2 = 0.0083333 # Plunge
fed9_2 = 0.0166667 # High Feed-rapid
rad_smooth_2 = 0.000005 # Robot radius smoothing
#
#
movel(pose_trans(Ref_frame,p[-0.054817,-0.031488,0.015539,-0.169887212,-0.594605242,0.634027698]),a=acc_2,v=fed9_2,r=rad_smooth_2)
movel(pose_trans(Ref_frame,p[-0.049817,-0.031488,0.006879,-0.169887212,-0.594605242,0.634027698]),a=acc_2,v=fed9_2,r=rad_smooth_2)
# Plunge Move Starts
movel(pose_trans(Ref_frame,p[-0.045744,-0.031488,-0.000175,-0.169887212,-0.594605242,0.634027698]),a=acc_2,v=fed8_2,r=rad_smooth_2)
# Lead In Move Starts
movel(pose_trans(Ref_frame,p[-0.045407,-0.031209,-0.000758,-0.169887212,-0.594605242,0.634027698]),a=acc_2,v=fed4_2,r=rad_smooth_2)
movel(pose_trans(Ref_frame,p[-0.045268,-0.030536,-0.001000,-0.169887212,-0.594605242,0.634027698]),a=acc_2,v=fed4_2,r=rad_smooth_2)
# Cutting Move Starts
movel(pose_trans(Ref_frame,p[-0.045268,0.032000,-0.001000,-0.169887212,-0.594605242,0.634027698]),a=acc_2,v=fed3_2,r=rad_smooth_2)
# Lead Out Move Starts
movel(pose_trans(Ref_frame,p[-0.045407,0.032674,-0.000758,-0.169887212,-0.594605242,0.634027698]),a=acc_2,v=fed5_2,r=rad_smooth_2)
movel(pose_trans(Ref_frame,p[-0.045744,0.032952,-0.000175,-0.169887212,-0.594605242,0.634027698]),a=acc_2,v=fed5_2,r=rad_smooth_2)
# Rapid Move Starts
movel(pose_trans(Ref_frame,p[-0.054817,0.032952,0.015539,-0.169887212,-0.594605242,0.634027698]),a=acc_2,v=fed9_2,r=rad_smooth_2)
#
# Toolpath Name = 2D_Face_back
# Head angle    = 30 deg
#
# Spindle Speed      = 5000 RPM
# Tool               = 2
# Motion Settings
acc_3 = 1 # Robot acceleration
vel_3 = 0.2 # Robot movej tool speed
fed3_3 = 0.0166667 # Finish
fed4_3 = 0.0166667 # Lead-in
fed5_3 = 0.0166667 # Lead-out
fed8_3 = 0.0083333 # Plunge
fed9_3 = 0.0166667 # High Feed-rapid
rad_smooth_3 = 0.000005 # Robot radius smoothing
#
#
movel(pose_trans(Ref_frame,p[-0.057952,0.029817,0.015539,-0.548145684,0.127197648,0.474708078]),a=acc_3,v=fed9_3,r=rad_smooth_3)
movel(pose_trans(Ref_frame,p[-0.057952,0.024817,0.006879,-0.548145684,0.127197648,0.474708078]),a=acc_3,v=fed9_3,r=rad_smooth_3)
# Plunge Move Starts
movel(pose_trans(Ref_frame,p[-0.057952,0.020744,-0.000175,-0.548145684,0.127197648,0.474708078]),a=acc_3,v=fed8_3,r=rad_smooth_3)
# Lead In Move Starts
movel(pose_trans(Ref_frame,p[-0.057674,0.020407,-0.000758,-0.548145684,0.127197648,0.474708078]),a=acc_3,v=fed4_3,r=rad_smooth_3)
movel(pose_trans(Ref_frame,p[-0.057000,0.020268,-0.001000,-0.548145684,0.127197648,0.474708078]),a=acc_3,v=fed4_3,r=rad_smooth_3)
# Cutting Move Starts
movel(pose_trans(Ref_frame,p[0.054657,0.020268,-0.001000,-0.548145684,0.127197648,0.474708078]),a=acc_3,v=fed3_3,r=rad_smooth_3)
# Lead Out Move Starts
movel(pose_trans(Ref_frame,p[0.055330,0.020407,-0.000758,-0.548145684,0.127197648,0.474708078]),a=acc_3,v=fed5_3,r=rad_smooth_3)
movel(pose_trans(Ref_frame,p[0.055609,0.020744,-0.000175,-0.548145684,0.127197648,0.474708078]),a=acc_3,v=fed5_3,r=rad_smooth_3)
# Rapid Move Starts
movel(pose_trans(Ref_frame,p[0.055609,0.029817,0.015539,-0.548145684,0.127197648,0.474708078]),a=acc_3,v=fed9_3,r=rad_smooth_3)
#
# Toolpath Name = 2D_Face_back_duplicate
# Head angle    = 30 deg
#
# Spindle Speed      = 5000 RPM
# Tool               = 2
# Motion Settings
acc_4 = 1 # Robot acceleration
vel_4 = 0.2 # Robot movej tool speed
fed3_4 = 0.0166667 # Finish
fed4_4 = 0.0166667 # Lead-in
fed5_4 = 0.0166667 # Lead-out
fed8_4 = 0.0083333 # Plunge
fed9_4 = 0.0166667 # High Feed-rapid
rad_smooth_4 = 0.000005 # Robot radius smoothing
#
#
movel(pose_trans(Ref_frame,p[-0.057952,0.029817,0.015539,-0.548145684,0.127197648,0.474708078]),a=acc_4,v=fed9_4,r=rad_smooth_4)
movel(pose_trans(Ref_frame,p[-0.057952,0.024817,0.006879,-0.548145684,0.127197648,0.474708078]),a=acc_4,v=fed9_4,r=rad_smooth_4)
# Plunge Move Starts
movel(pose_trans(Ref_frame,p[-0.057952,0.020744,-0.000175,-0.548145684,0.127197648,0.474708078]),a=acc_4,v=fed8_4,r=rad_smooth_4)
# Lead In Move Starts
movel(pose_trans(Ref_frame,p[-0.057674,0.020407,-0.000758,-0.548145684,0.127197648,0.474708078]),a=acc_4,v=fed4_4,r=rad_smooth_4)
movel(pose_trans(Ref_frame,p[-0.057000,0.020268,-0.001000,-0.548145684,0.127197648,0.474708078]),a=acc_4,v=fed4_4,r=rad_smooth_4)
# Cutting Move Starts
movel(pose_trans(Ref_frame,p[0.054657,0.020268,-0.001000,-0.548145684,0.127197648,0.474708078]),a=acc_4,v=fed3_4,r=rad_smooth_4)
# Lead Out Move Starts
movel(pose_trans(Ref_frame,p[0.055330,0.020407,-0.000758,-0.548145684,0.127197648,0.474708078]),a=acc_4,v=fed5_4,r=rad_smooth_4)
movel(pose_trans(Ref_frame,p[0.055609,0.020744,-0.000175,-0.548145684,0.127197648,0.474708078]),a=acc_4,v=fed5_4,r=rad_smooth_4)
# Rapid Move Starts
movel(pose_trans(Ref_frame,p[0.055609,0.029817,0.015539,-0.548145684,0.127197648,0.474708078]),a=acc_4,v=fed9_4,r=rad_smooth_4)
#
# Toolpath Name = 2D_Contour_top
# Head angle    = 30 deg
#
# Spindle Speed      = 5000 RPM
# Tool               = 2
# Motion Settings
acc_5 = 1 # Robot acceleration
vel_5 = 0.2 # Robot movej tool speed
fed3_5 = 0.0166667 # Finish
fed4_5 = 0.0166667 # Lead-in
fed5_5 = 0.0166667 # Lead-out
fed9_5 = 0.0083333 # Plunge
fed10_5 = 0.0166667 # High Feed-rapid
rad_smooth_5 = 0.000005 # Robot radius smoothing
#
#
movel(pose_trans(Ref_frame,p[0.001040,-0.000952,0.016240,0.000000000,0.000000000,0.523598776]),a=acc_5,v=fed10_5,r=rad_smooth_5)
movel(pose_trans(Ref_frame,p[0.001040,-0.000952,0.006080,0.000000000,0.000000000,0.523598776]),a=acc_5,v=fed10_5,r=rad_smooth_5)
# Plunge Move Starts
movel(pose_trans(Ref_frame,p[0.001040,-0.000952,0.002000,0.000000000,0.000000000,0.523598776]),a=acc_5,v=fed9_5,r=rad_smooth_5)
movel(pose_trans(Ref_frame,p[0.001040,-0.000952,-0.004048,0.000000000,0.000000000,0.523598776]),a=acc_5,v=fed9_5,r=rad_smooth_5)
# Lead In Move Starts
movel(pose_trans(Ref_frame,p[0.001319,-0.000952,-0.004721,0.000000000,0.000000000,0.523598776]),a=acc_5,v=fed4_5,r=rad_smooth_5)
movel(pose_trans(Ref_frame,p[0.001993,-0.000952,-0.005000,0.000000000,0.000000000,0.523598776]),a=acc_5,v=fed4_5,r=rad_smooth_5)
movel(pose_trans(Ref_frame,p[0.002945,-0.000952,-0.005000,0.000000000,0.000000000,0.523598776]),a=acc_5,v=fed4_5,r=rad_smooth_5)
movel(pose_trans(Ref_frame,p[0.003619,-0.000674,-0.005000,0.000000000,0.000000000,0.523598776]),a=acc_5,v=fed4_5,r=rad_smooth_5)
movel(pose_trans(Ref_frame,p[0.003898,0.000000,-0.005000,0.000000000,0.000000000,0.523598776]),a=acc_5,v=fed4_5,r=rad_smooth_5)
# Cutting Move Starts
movel(pose_trans(Ref_frame,p[0.003512,0.001691,-0.005000,0.000000000,0.000000000,0.523598776]),a=acc_5,v=fed3_5,r=rad_smooth_5)
movel(pose_trans(Ref_frame,p[0.002430,0.003047,-0.005000,0.000000000,0.000000000,0.523598776]),a=acc_5,v=fed3_5,r=rad_smooth_5)
movel(pose_trans(Ref_frame,p[0.000867,0.003800,-0.005000,0.000000000,0.000000000,0.523598776]),a=acc_5,v=fed3_5,r=rad_smooth_5)
movel(pose_trans(Ref_frame,p[-0.000867,0.003800,-0.005000,0.000000000,0.000000000,0.523598776]),a=acc_5,v=fed3_5,r=rad_smooth_5)
movel(pose_trans(Ref_frame,p[-0.002430,0.003047,-0.005000,0.000000000,0.000000000,0.523598776]),a=acc_5,v=fed3_5,r=rad_smooth_5)
movel(pose_trans(Ref_frame,p[-0.003512,0.001691,-0.005000,0.000000000,0.000000000,0.523598776]),a=acc_5,v=fed3_5,r=rad_smooth_5)
movel(pose_trans(Ref_frame,p[-0.003898,0.000000,-0.005000,0.000000000,0.000000000,0.523598776]),a=acc_5,v=fed3_5,r=rad_smooth_5)
movel(pose_trans(Ref_frame,p[-0.003512,-0.001691,-0.005000,0.000000000,0.000000000,0.523598776]),a=acc_5,v=fed3_5,r=rad_smooth_5)
movel(pose_trans(Ref_frame,p[-0.002430,-0.003047,-0.005000,0.000000000,0.000000000,0.523598776]),a=acc_5,v=fed3_5,r=rad_smooth_5)
movel(pose_trans(Ref_frame,p[-0.000867,-0.003800,-0.005000,0.000000000,0.000000000,0.523598776]),a=acc_5,v=fed3_5,r=rad_smooth_5)
movel(pose_trans(Ref_frame,p[0.000867,-0.003800,-0.005000,0.000000000,0.000000000,0.523598776]),a=acc_5,v=fed3_5,r=rad_smooth_5)
movel(pose_trans(Ref_frame,p[0.002430,-0.003047,-0.005000,0.000000000,0.000000000,0.523598776]),a=acc_5,v=fed3_5,r=rad_smooth_5)
movel(pose_trans(Ref_frame,p[0.003512,-0.001691,-0.005000,0.000000000,0.000000000,0.523598776]),a=acc_5,v=fed3_5,r=rad_smooth_5)
movel(pose_trans(Ref_frame,p[0.003898,0.000000,-0.005000,0.000000000,0.000000000,0.523598776]),a=acc_5,v=fed3_5,r=rad_smooth_5)
# Lead Out Move Starts
movel(pose_trans(Ref_frame,p[0.003619,0.000674,-0.005000,0.000000000,0.000000000,0.523598776]),a=acc_5,v=fed5_5,r=rad_smooth_5)
movel(pose_trans(Ref_frame,p[0.002945,0.000952,-0.005000,0.000000000,0.000000000,0.523598776]),a=acc_5,v=fed5_5,r=rad_smooth_5)
movel(pose_trans(Ref_frame,p[0.001993,0.000952,-0.005000,0.000000000,0.000000000,0.523598776]),a=acc_5,v=fed5_5,r=rad_smooth_5)
movel(pose_trans(Ref_frame,p[0.001319,0.000952,-0.004721,0.000000000,0.000000000,0.523598776]),a=acc_5,v=fed5_5,r=rad_smooth_5)
movel(pose_trans(Ref_frame,p[0.001040,0.000952,-0.004048,0.000000000,0.000000000,0.523598776]),a=acc_5,v=fed5_5,r=rad_smooth_5)
# Rapid Move Starts
movel(pose_trans(Ref_frame,p[0.001040,0.000952,0.016240,0.000000000,0.000000000,0.523598776]),a=acc_5,v=fed10_5,r=rad_smooth_5)
#
# Toolpath Name = 2D_Face_right
# Head angle    = 30 deg
#
# Spindle Speed      = 5000 RPM
# Tool               = 2
# Motion Settings
acc_6 = 1 # Robot acceleration
vel_6 = 0.2 # Robot movej tool speed
fed3_6 = 0.0166667 # Finish
fed4_6 = 0.0166667 # Lead-in
fed5_6 = 0.0166667 # Lead-out
fed8_6 = 0.0083333 # Plunge
fed9_6 = 0.0166667 # High Feed-rapid
rad_smooth_6 = 0.000005 # Robot radius smoothing
#
#
movel(pose_trans(Ref_frame,p[0.054817,0.030609,0.015539,0.169887212,0.594605242,0.634027698]),a=acc_6,v=fed9_6,r=rad_smooth_6)
movel(pose_trans(Ref_frame,p[0.049817,0.030609,0.006879,0.169887212,0.594605242,0.634027698]),a=acc_6,v=fed9_6,r=rad_smooth_6)
# Plunge Move Starts
movel(pose_trans(Ref_frame,p[0.045744,0.030609,-0.000175,0.169887212,0.594605242,0.634027698]),a=acc_6,v=fed8_6,r=rad_smooth_6)
# Lead In Move Starts
movel(pose_trans(Ref_frame,p[0.045407,0.030330,-0.000758,0.169887212,0.594605242,0.634027698]),a=acc_6,v=fed4_6,r=rad_smooth_6)
movel(pose_trans(Ref_frame,p[0.045268,0.029657,-0.001000,0.169887212,0.594605242,0.634027698]),a=acc_6,v=fed4_6,r=rad_smooth_6)
# Cutting Move Starts
movel(pose_trans(Ref_frame,p[0.045268,-0.028031,-0.001000,0.169887212,0.594605242,0.634027698]),a=acc_6,v=fed3_6,r=rad_smooth_6)
# Lead Out Move Starts
movel(pose_trans(Ref_frame,p[0.045407,-0.028705,-0.000758,0.169887212,0.594605242,0.634027698]),a=acc_6,v=fed5_6,r=rad_smooth_6)
movel(pose_trans(Ref_frame,p[0.045744,-0.028984,-0.000175,0.169887212,0.594605242,0.634027698]),a=acc_6,v=fed5_6,r=rad_smooth_6)
# Rapid Move Starts
movel(pose_trans(Ref_frame,p[0.054817,-0.028984,0.015539,0.169887212,0.594605242,0.634027698]),a=acc_6,v=fed9_6,r=rad_smooth_6)
# Last Toolpath Point
end
