/JOB
//NAME 1234
//POS
///TOOL 0
///POSTYPE ROBOT
///RECTAN
///RCONF 0,0,0,0,0

C0000=3.1496, -0.975, 0.6299, -180, 0, -90
C0001=3.1496, -0.975, 0.6299, -180, 0, -90
C0002=3.1496, -0.975, 0.2362, -180, 0, -90
C0003=3.1496, -0.975, 0, -180, 0, -90
C0004=-3.1496, -0.975, 0, -180, 0, -90
C0005=-3.6483, -0.4763, 0, -180, 0, -90
C0006=-3.1496, 0.0224, 0, -180, 0, -90
C0007=3.1496, 0.0224, 0, -180, 0, -90
C0008=3.1496, 0.0224, 0.6299, -180, 0, -90
C0009=-0.375, 1.2151, 0.6299, -180, 0, -90
C0010=-0.375, 1.2151, 0.6299, -180, 0, -90
C0011=-0.375, 1.2151, 0.2362, -180, 0, -90
C0012=-0.375, 1.2151, 0.0787, -180, 0, -90
C0013=-0.375, 1.2151, -0.3937, -180, 0, -90
C0014=-0.375, 1.2111, -0.3937, -180, 0, -90
C0015=-0.3289, 1.0998, -0.3937, -180, 0, -90
C0016=-0.2175, 1.0536, -0.3937, -180, 0, -90
C0017=1.5354, 1.0536, -0.3937, -180, 0, -90
C0018=1.8907, 0.9065, -0.3937, -180, 0, -90
C0019=2.0379, 0.5512, -0.3937, -180, 0, -90
C0020=2.0379, -0.8661, -0.3937, -180, 0, -90
C0021=1.983, -0.9987, -0.3937, -180, 0, -90
C0022=1.8504, -1.0536, -0.3937, -180, 0, -90
C0023=-1.6535, -1.0536, -0.3937, -180, 0, -90
C0024=-1.9253, -0.9411, -0.3937, -180, 0, -90
C0025=-2.0379, -0.6693, -0.3937, -180, 0, -90
C0026=-2.0379, 0.8661, -0.3937, -180, 0, -90
C0027=-1.983, 0.9987, -0.3937, -180, 0, -90
C0028=-1.8504, 1.0536, -0.3937, -180, 0, -90
C0029=-0.2175, 1.0536, -0.3937, -180, 0, -90
C0030=-0.1062, 1.0998, -0.3937, -180, 0, -90
C0031=-0.06, 1.2111, -0.3937, -180, 0, -90
C0032=-0.06, 1.2151, -0.3937, -180, 0, -90
C0033=-0.06, 1.2151, 0.6299, -180, 0, -90

' 2D-FACE 2
' T1
' MYTOOLCOMMENT
MOVL C0000 V=10
MOVL C0001
MOVL C0002
MOVL C0003 V=1.968
MOVL C0004 V=3.937
MOVL C0004
MOVC C0004
MOVC C0005
MOVC C0006
MOVL C0007
MOVL C0008 V=10

' 2D-CONTOUR 2
' T2
MOVL C0009 V=10
MOVL C0010
MOVL C0011
MOVL C0012 V=1.968
MOVL C0013
MOVL C0014 V=3.937
MOVL C0014
MOVC C0014
MOVC C0015
MOVC C0016
MOVL C0017
MOVL C0017
MOVC C0017
MOVC C0018
MOVC C0019
MOVL C0020
MOVL C0020
MOVC C0020
MOVC C0021
MOVC C0022
MOVL C0023
MOVL C0023
MOVC C0023
MOVC C0024
MOVC C0025
MOVL C0026
MOVL C0026
MOVC C0026
MOVC C0027
MOVC C0028
MOVL C0029
MOVL C0029
MOVC C0029
MOVC C0030
MOVC C0031
MOVL C0032
MOVL C0033 V=10

END
