/JOB
//NAME 1234
//POS
///TOOL 0
///POSTYPE ROBOT
///RECTAN
///RCONF 0,0,0,0,0

C0000=80, -24.765, 16, -180, 0, -90
C0001=80, -24.765, 16, -180, 0, -90
C0002=80, -24.765, 6, -180, 0, -90
C0003=80, -24.765, 0, -180, 0, -90
C0004=-80, -24.765, 0, -180, 0, -90
C0005=-82.2, -24.573, 0, -180, 0, -90
C0006=-84.333, -24.001, 0, -180, 0, -90
C0007=-86.334, -23.068, 0, -180, 0, -90
C0008=-88.143, -21.801, 0, -180, 0, -90
C0009=-89.704, -20.24, 0, -180, 0, -90
C0010=-90.97, -18.431, 0, -180, 0, -90
C0011=-91.904, -16.43, 0, -180, 0, -90
C0012=-92.475, -14.297, 0, -180, 0, -90
C0013=-92.667, -12.097, 0, -180, 0, -90
C0014=-92.475, -9.898, 0, -180, 0, -90
C0015=-91.904, -7.765, 0, -180, 0, -90
C0016=-90.97, -5.764, 0, -180, 0, -90
C0017=-89.704, -3.955, 0, -180, 0, -90
C0018=-88.143, -2.394, 0, -180, 0, -90
C0019=-86.334, -1.127, 0, -180, 0, -90
C0020=-84.333, -0.194, 0, -180, 0, -90
C0021=-82.2, 0.378, 0, -180, 0, -90
C0022=-80, 0.57, 0, -180, 0, -90
C0023=80, 0.57, 0, -180, 0, -90
C0024=80, 0.57, 16, -180, 0, -90
C0025=-9.525, 30.862, 16, -180, 0, -90
C0026=-9.525, 30.862, 16, -180, 0, -90
C0027=-9.525, 30.862, 6, -180, 0, -90
C0028=-9.525, 30.862, 2, -180, 0, -90
C0029=-9.525, 30.862, -10, -180, 0, -90
C0030=-9.525, 30.763, -10, -180, 0, -90
C0031=-9.329, 29.526, -10, -180, 0, -90
C0032=-8.761, 28.411, -10, -180, 0, -90
C0033=-7.876, 27.526, -10, -180, 0, -90
C0034=-6.761, 26.958, -10, -180, 0, -90
C0035=-5.525, 26.763, -10, -180, 0, -90
C0036=39, 26.763, -10, -180, 0, -90
C0037=41.216, 26.569, -10, -180, 0, -90
C0038=43.365, 25.993, -10, -180, 0, -90
C0039=45.381, 25.053, -10, -180, 0, -90
C0040=47.204, 23.777, -10, -180, 0, -90
C0041=48.777, 22.204, -10, -180, 0, -90
C0042=50.053, 20.381, -10, -180, 0, -90
C0043=50.993, 18.365, -10, -180, 0, -90
C0044=51.569, 16.216, -10, -180, 0, -90
C0045=51.763, 14, -10, -180, 0, -90
C0046=51.763, -22, -10, -180, 0, -90
C0047=51.6, -23.233, -10, -180, 0, -90
C0048=51.124, -24.381, -10, -180, 0, -90
C0049=50.368, -25.368, -10, -180, 0, -90
C0050=49.381, -26.124, -10, -180, 0, -90
C0051=48.233, -26.6, -10, -180, 0, -90
C0052=47, -26.763, -10, -180, 0, -90
C0053=-42, -26.763, -10, -180, 0, -90
C0054=-43.905, -26.575, -10, -180, 0, -90
C0055=-45.736, -26.019, -10, -180, 0, -90
C0056=-47.424, -25.117, -10, -180, 0, -90
C0057=-48.903, -23.903, -10, -180, 0, -90
C0058=-50.117, -22.424, -10, -180, 0, -90
C0059=-51.019, -20.736, -10, -180, 0, -90
C0060=-51.575, -18.905, -10, -180, 0, -90
C0061=-51.763, -17, -10, -180, 0, -90
C0062=-51.763, 22, -10, -180, 0, -90
C0063=-51.6, 23.233, -10, -180, 0, -90
C0064=-51.124, 24.381, -10, -180, 0, -90
C0065=-50.368, 25.368, -10, -180, 0, -90
C0066=-49.381, 26.124, -10, -180, 0, -90
C0067=-48.233, 26.6, -10, -180, 0, -90
C0068=-47, 26.763, -10, -180, 0, -90
C0069=-5.525, 26.763, -10, -180, 0, -90
C0070=-4.289, 26.958, -10, -180, 0, -90
C0071=-3.174, 27.526, -10, -180, 0, -90
C0072=-2.289, 28.411, -10, -180, 0, -90
C0073=-1.721, 29.526, -10, -180, 0, -90
C0074=-1.525, 30.763, -10, -180, 0, -90
C0075=-1.525, 30.862, -10, -180, 0, -90
C0076=-1.525, 30.862, 16, -180, 0, -90

' 2D-FACE 2
' T1
' MYTOOLCOMMENT
MOVL C0000 V=100
MOVL C0001
MOVL C0002
MOVL C0003 V=50
MOVL C0004 V=100
MOVL C0005
MOVL C0006
MOVL C0007
MOVL C0008
MOVL C0009
MOVL C0010
MOVL C0011
MOVL C0012
MOVL C0013
MOVL C0014
MOVL C0015
MOVL C0016
MOVL C0017
MOVL C0018
MOVL C0019
MOVL C0020
MOVL C0021
MOVL C0022
MOVL C0023
MOVL C0024

' 2D-CONTOUR 2
' T2
MOVL C0025 V=100
MOVL C0026
MOVL C0027
MOVL C0028 V=50
MOVL C0029
MOVL C0030 V=100
MOVL C0031
MOVL C0032
MOVL C0033
MOVL C0034
MOVL C0035
MOVL C0036
MOVL C0037
MOVL C0038
MOVL C0039
MOVL C0040
MOVL C0041
MOVL C0042
MOVL C0043
MOVL C0044
MOVL C0045
MOVL C0046
MOVL C0047
MOVL C0048
MOVL C0049
MOVL C0050
MOVL C0051
MOVL C0052
MOVL C0053
MOVL C0054
MOVL C0055
MOVL C0056
MOVL C0057
MOVL C0058
MOVL C0059
MOVL C0060
MOVL C0061
MOVL C0062
MOVL C0063
MOVL C0064
MOVL C0065
MOVL C0066
MOVL C0067
MOVL C0068
MOVL C0069
MOVL C0070
MOVL C0071
MOVL C0072
MOVL C0073
MOVL C0074
MOVL C0075
MOVL C0076

END
