/JOB
//NAME 1234
//POS
///TOOL 0
///POSTYPE ROBOT
///RECTAN
///RCONF 0,0,0,0,0

C0000=-25, 10, 16, -180, 0, -90
C0001=-25, 10, 16, -180, 0, -90
C0002=-25, 10, 16, -180, 0, -90
C0003=-25, 10, 6, -180, 0, -90
C0004=-25, 10, 5, -180, 0, -90
C0005=-25, 10, -16.535, -180, 0, -90
C0006=-25, 10, 6, -180, 0, -90
C0007=25, 10, 6, -180, 0, -90
C0008=25, 10, 6, -180, 0, -90
C0009=25, 10, 5, -180, 0, -90
C0010=25, 10, -16.535, -180, 0, -90
C0011=25, 10, 6, -180, 0, -90
C0012=25, 10, 16, -180, 0, -90
C0013=-25, 10, 16, -180, 0, -90
C0014=-25, 10, 16, -180, 0, -90
C0015=-25, 10, 16, -180, 0, -90
C0016=-25, 10, 6, -180, 0, -90
C0017=-25, 10, 5, -180, 0, -90
C0018=-25, 10, -16.535, -180, 0, -90
C0019=-25, 10, 6, -180, 0, -90
C0020=25, 10, 6, -180, 0, -90
C0021=25, 10, 6, -180, 0, -90
C0022=25, 10, 5, -180, 0, -90
C0023=25, 10, -16.535, -180, 0, -90
C0024=25, 10, 6, -180, 0, -90
C0025=25, 10, 16, -180, 0, -90
C0026=-25, 10, 16, -180, 0, -90
C0027=-25, 10, 16, -180, 0, -90
C0028=-25, 10, 16, -180, 0, -90
C0029=-25, 10, 6, -180, 0, -90
C0030=-25, 10, 5, -180, 0, -90
C0031=-25, 10, 2, -180, 0, -90
C0032=-25, 10, -1, -180, 0, -90
C0033=-25, 10, -0.898, -180, 0, -90
C0034=-25, 10, -1.9, -180, 0, -90
C0035=-25, 10, -1.798, -180, 0, -90
C0036=-25, 10, -2.7, -180, 0, -90
C0037=-25, 10, -2.598, -180, 0, -90
C0038=-25, 10, -3.4, -180, 0, -90
C0039=-25, 10, -3.298, -180, 0, -90
C0040=-25, 10, -4, -180, 0, -90
C0041=-25, 10, -3.898, -180, 0, -90
C0042=-25, 10, -4.5, -180, 0, -90
C0043=-25, 10, -4.398, -180, 0, -90
C0044=-25, 10, -5, -180, 0, -90
C0045=-25, 10, 6, -180, 0, -90
C0046=-25, 10, -3, -180, 0, -90
C0047=-25, 10, -5.5, -180, 0, -90
C0048=-25, 10, -5.398, -180, 0, -90
C0049=-25, 10, -6, -180, 0, -90
C0050=-25, 10, -5.898, -180, 0, -90
C0051=-25, 10, -6.5, -180, 0, -90
C0052=-25, 10, -6.398, -180, 0, -90
C0053=-25, 10, -7, -180, 0, -90
C0054=-25, 10, -6.898, -180, 0, -90
C0055=-25, 10, -7.5, -180, 0, -90
C0056=-25, 10, -7.398, -180, 0, -90
C0057=-25, 10, -8, -180, 0, -90
C0058=-25, 10, -7.898, -180, 0, -90
C0059=-25, 10, -8.5, -180, 0, -90
C0060=-25, 10, -8.398, -180, 0, -90
C0061=-25, 10, -9, -180, 0, -90
C0062=-25, 10, -8.898, -180, 0, -90
C0063=-25, 10, -9.5, -180, 0, -90
C0064=-25, 10, -9.398, -180, 0, -90
C0065=-25, 10, -10, -180, 0, -90
C0066=-25, 10, 6, -180, 0, -90
C0067=-25, 10, -8, -180, 0, -90
C0068=-25, 10, -10.5, -180, 0, -90
C0069=-25, 10, -10.398, -180, 0, -90
C0070=-25, 10, -11, -180, 0, -90
C0071=-25, 10, -10.898, -180, 0, -90
C0072=-25, 10, -11.5, -180, 0, -90
C0073=-25, 10, -11.398, -180, 0, -90
C0074=-25, 10, -12, -180, 0, -90
C0075=-25, 10, -11.898, -180, 0, -90
C0076=-25, 10, -12.5, -180, 0, -90
C0077=-25, 10, -12.398, -180, 0, -90
C0078=-25, 10, -13, -180, 0, -90
C0079=-25, 10, -12.898, -180, 0, -90
C0080=-25, 10, -13.5, -180, 0, -90
C0081=-25, 10, -13.398, -180, 0, -90
C0082=-25, 10, -14, -180, 0, -90
C0083=-25, 10, -13.898, -180, 0, -90
C0084=-25, 10, -14.5, -180, 0, -90
C0085=-25, 10, -14.398, -180, 0, -90
C0086=-25, 10, -15, -180, 0, -90
C0087=-25, 10, 6, -180, 0, -90
C0088=-25, 10, -13, -180, 0, -90
C0089=-25, 10, -15.5, -180, 0, -90
C0090=-25, 10, -15.398, -180, 0, -90
C0091=-25, 10, -16, -180, 0, -90
C0092=-25, 10, -15.898, -180, 0, -90
C0093=-25, 10, -16.5, -180, 0, -90
C0094=-25, 10, -16.398, -180, 0, -90
C0095=-25, 10, -16.535, -180, 0, -90
C0096=-25, 10, 6, -180, 0, -90
C0097=25, 10, 6, -180, 0, -90
C0098=25, 10, 6, -180, 0, -90
C0099=25, 10, 5, -180, 0, -90
C0100=25, 10, 2, -180, 0, -90
C0101=25, 10, -1, -180, 0, -90
C0102=25, 10, -0.898, -180, 0, -90
C0103=25, 10, -1.9, -180, 0, -90
C0104=25, 10, -1.798, -180, 0, -90
C0105=25, 10, -2.7, -180, 0, -90
C0106=25, 10, -2.598, -180, 0, -90
C0107=25, 10, -3.4, -180, 0, -90
C0108=25, 10, -3.298, -180, 0, -90
C0109=25, 10, -4, -180, 0, -90
C0110=25, 10, -3.898, -180, 0, -90
C0111=25, 10, -4.5, -180, 0, -90
C0112=25, 10, -4.398, -180, 0, -90
C0113=25, 10, -5, -180, 0, -90
C0114=25, 10, 6, -180, 0, -90
C0115=25, 10, -3, -180, 0, -90
C0116=25, 10, -5.5, -180, 0, -90
C0117=25, 10, -5.398, -180, 0, -90
C0118=25, 10, -6, -180, 0, -90
C0119=25, 10, -5.898, -180, 0, -90
C0120=25, 10, -6.5, -180, 0, -90
C0121=25, 10, -6.398, -180, 0, -90
C0122=25, 10, -7, -180, 0, -90
C0123=25, 10, -6.898, -180, 0, -90
C0124=25, 10, -7.5, -180, 0, -90
C0125=25, 10, -7.398, -180, 0, -90
C0126=25, 10, -8, -180, 0, -90
C0127=25, 10, -7.898, -180, 0, -90
C0128=25, 10, -8.5, -180, 0, -90
C0129=25, 10, -8.398, -180, 0, -90
C0130=25, 10, -9, -180, 0, -90
C0131=25, 10, -8.898, -180, 0, -90
C0132=25, 10, -9.5, -180, 0, -90
C0133=25, 10, -9.398, -180, 0, -90
C0134=25, 10, -10, -180, 0, -90
C0135=25, 10, 6, -180, 0, -90
C0136=25, 10, -8, -180, 0, -90
C0137=25, 10, -10.5, -180, 0, -90
C0138=25, 10, -10.398, -180, 0, -90
C0139=25, 10, -11, -180, 0, -90
C0140=25, 10, -10.898, -180, 0, -90
C0141=25, 10, -11.5, -180, 0, -90
C0142=25, 10, -11.398, -180, 0, -90
C0143=25, 10, -12, -180, 0, -90
C0144=25, 10, -11.898, -180, 0, -90
C0145=25, 10, -12.5, -180, 0, -90
C0146=25, 10, -12.398, -180, 0, -90
C0147=25, 10, -13, -180, 0, -90
C0148=25, 10, -12.898, -180, 0, -90
C0149=25, 10, -13.5, -180, 0, -90
C0150=25, 10, -13.398, -180, 0, -90
C0151=25, 10, -14, -180, 0, -90
C0152=25, 10, -13.898, -180, 0, -90
C0153=25, 10, -14.5, -180, 0, -90
C0154=25, 10, -14.398, -180, 0, -90
C0155=25, 10, -15, -180, 0, -90
C0156=25, 10, 6, -180, 0, -90
C0157=25, 10, -13, -180, 0, -90
C0158=25, 10, -15.5, -180, 0, -90
C0159=25, 10, -15.398, -180, 0, -90
C0160=25, 10, -16, -180, 0, -90
C0161=25, 10, -15.898, -180, 0, -90
C0162=25, 10, -16.5, -180, 0, -90
C0163=25, 10, -16.398, -180, 0, -90
C0164=25, 10, -16.535, -180, 0, -90
C0165=25, 10, 6, -180, 0, -90
C0166=25, 10, 16, -180, 0, -90
C0167=-25, 10, 16, -180, 0, -90
C0168=-25, 10, 16, -180, 0, -90
C0169=-25, 10, 16, -180, 0, -90
C0170=-25, 10, 6, -180, 0, -90
C0171=-25, 10, 5, -180, 0, -90
C0172=-25, 10, 2, -180, 0, -90
C0173=-25, 10, -1, -180, 0, -90
C0174=-25, 10, 5, -180, 0, -90
C0175=-25, 10, 1, -180, 0, -90
C0176=-25, 10, -1.9, -180, 0, -90
C0177=-25, 10, 5, -180, 0, -90
C0178=-25, 10, 0.1, -180, 0, -90
C0179=-25, 10, -2.7, -180, 0, -90
C0180=-25, 10, 5, -180, 0, -90
C0181=-25, 10, -0.7, -180, 0, -90
C0182=-25, 10, -3.4, -180, 0, -90
C0183=-25, 10, 5, -180, 0, -90
C0184=-25, 10, -1.4, -180, 0, -90
C0185=-25, 10, -4, -180, 0, -90
C0186=-25, 10, 5, -180, 0, -90
C0187=-25, 10, -2, -180, 0, -90
C0188=-25, 10, -4.5, -180, 0, -90
C0189=-25, 10, 5, -180, 0, -90
C0190=-25, 10, -2.5, -180, 0, -90
C0191=-25, 10, -5, -180, 0, -90
C0192=-25, 10, 5, -180, 0, -90
C0193=-25, 10, -3, -180, 0, -90
C0194=-25, 10, -5.5, -180, 0, -90
C0195=-25, 10, 5, -180, 0, -90
C0196=-25, 10, -3.5, -180, 0, -90
C0197=-25, 10, -6, -180, 0, -90
C0198=-25, 10, 5, -180, 0, -90
C0199=-25, 10, -4, -180, 0, -90
C0200=-25, 10, -6.5, -180, 0, -90
C0201=-25, 10, 5, -180, 0, -90
C0202=-25, 10, -4.5, -180, 0, -90
C0203=-25, 10, -7, -180, 0, -90
C0204=-25, 10, 5, -180, 0, -90
C0205=-25, 10, -5, -180, 0, -90
C0206=-25, 10, -7.5, -180, 0, -90
C0207=-25, 10, 5, -180, 0, -90
C0208=-25, 10, -5.5, -180, 0, -90
C0209=-25, 10, -8, -180, 0, -90
C0210=-25, 10, 5, -180, 0, -90
C0211=-25, 10, -6, -180, 0, -90
C0212=-25, 10, -8.5, -180, 0, -90
C0213=-25, 10, 5, -180, 0, -90
C0214=-25, 10, -6.5, -180, 0, -90
C0215=-25, 10, -9, -180, 0, -90
C0216=-25, 10, 5, -180, 0, -90
C0217=-25, 10, -7, -180, 0, -90
C0218=-25, 10, -9.5, -180, 0, -90
C0219=-25, 10, 5, -180, 0, -90
C0220=-25, 10, -7.5, -180, 0, -90
C0221=-25, 10, -10, -180, 0, -90
C0222=-25, 10, 5, -180, 0, -90
C0223=-25, 10, -8, -180, 0, -90
C0224=-25, 10, -10.5, -180, 0, -90
C0225=-25, 10, 5, -180, 0, -90
C0226=-25, 10, -8.5, -180, 0, -90
C0227=-25, 10, -11, -180, 0, -90
C0228=-25, 10, 5, -180, 0, -90
C0229=-25, 10, -9, -180, 0, -90
C0230=-25, 10, -11.5, -180, 0, -90
C0231=-25, 10, 5, -180, 0, -90
C0232=-25, 10, -9.5, -180, 0, -90
C0233=-25, 10, -12, -180, 0, -90
C0234=-25, 10, 5, -180, 0, -90
C0235=-25, 10, -10, -180, 0, -90
C0236=-25, 10, -12.5, -180, 0, -90
C0237=-25, 10, 5, -180, 0, -90
C0238=-25, 10, -10.5, -180, 0, -90
C0239=-25, 10, -13, -180, 0, -90
C0240=-25, 10, 5, -180, 0, -90
C0241=-25, 10, -11, -180, 0, -90
C0242=-25, 10, -13.5, -180, 0, -90
C0243=-25, 10, 5, -180, 0, -90
C0244=-25, 10, -11.5, -180, 0, -90
C0245=-25, 10, -14, -180, 0, -90
C0246=-25, 10, 5, -180, 0, -90
C0247=-25, 10, -12, -180, 0, -90
C0248=-25, 10, -14.5, -180, 0, -90
C0249=-25, 10, 5, -180, 0, -90
C0250=-25, 10, -12.5, -180, 0, -90
C0251=-25, 10, -15, -180, 0, -90
C0252=-25, 10, 5, -180, 0, -90
C0253=-25, 10, -13, -180, 0, -90
C0254=-25, 10, -15.5, -180, 0, -90
C0255=-25, 10, 5, -180, 0, -90
C0256=-25, 10, -13.5, -180, 0, -90
C0257=-25, 10, -16, -180, 0, -90
C0258=-25, 10, 5, -180, 0, -90
C0259=-25, 10, -14, -180, 0, -90
C0260=-25, 10, -16.5, -180, 0, -90
C0261=-25, 10, 5, -180, 0, -90
C0262=-25, 10, -14.5, -180, 0, -90
C0263=-25, 10, -16.535, -180, 0, -90
C0264=-25, 10, 6, -180, 0, -90
C0265=25, 10, 6, -180, 0, -90
C0266=25, 10, 6, -180, 0, -90
C0267=25, 10, 5, -180, 0, -90
C0268=25, 10, 2, -180, 0, -90
C0269=25, 10, -1, -180, 0, -90
C0270=25, 10, 5, -180, 0, -90
C0271=25, 10, 1, -180, 0, -90
C0272=25, 10, -1.9, -180, 0, -90
C0273=25, 10, 5, -180, 0, -90
C0274=25, 10, 0.1, -180, 0, -90
C0275=25, 10, -2.7, -180, 0, -90
C0276=25, 10, 5, -180, 0, -90
C0277=25, 10, -0.7, -180, 0, -90
C0278=25, 10, -3.4, -180, 0, -90
C0279=25, 10, 5, -180, 0, -90
C0280=25, 10, -1.4, -180, 0, -90
C0281=25, 10, -4, -180, 0, -90
C0282=25, 10, 5, -180, 0, -90
C0283=25, 10, -2, -180, 0, -90
C0284=25, 10, -4.5, -180, 0, -90
C0285=25, 10, 5, -180, 0, -90
C0286=25, 10, -2.5, -180, 0, -90
C0287=25, 10, -5, -180, 0, -90
C0288=25, 10, 5, -180, 0, -90
C0289=25, 10, -3, -180, 0, -90
C0290=25, 10, -5.5, -180, 0, -90
C0291=25, 10, 5, -180, 0, -90
C0292=25, 10, -3.5, -180, 0, -90
C0293=25, 10, -6, -180, 0, -90
C0294=25, 10, 5, -180, 0, -90
C0295=25, 10, -4, -180, 0, -90
C0296=25, 10, -6.5, -180, 0, -90
C0297=25, 10, 5, -180, 0, -90
C0298=25, 10, -4.5, -180, 0, -90
C0299=25, 10, -7, -180, 0, -90
C0300=25, 10, 5, -180, 0, -90
C0301=25, 10, -5, -180, 0, -90
C0302=25, 10, -7.5, -180, 0, -90
C0303=25, 10, 5, -180, 0, -90
C0304=25, 10, -5.5, -180, 0, -90
C0305=25, 10, -8, -180, 0, -90
C0306=25, 10, 5, -180, 0, -90
C0307=25, 10, -6, -180, 0, -90
C0308=25, 10, -8.5, -180, 0, -90
C0309=25, 10, 5, -180, 0, -90
C0310=25, 10, -6.5, -180, 0, -90
C0311=25, 10, -9, -180, 0, -90
C0312=25, 10, 5, -180, 0, -90
C0313=25, 10, -7, -180, 0, -90
C0314=25, 10, -9.5, -180, 0, -90
C0315=25, 10, 5, -180, 0, -90
C0316=25, 10, -7.5, -180, 0, -90
C0317=25, 10, -10, -180, 0, -90
C0318=25, 10, 5, -180, 0, -90
C0319=25, 10, -8, -180, 0, -90
C0320=25, 10, -10.5, -180, 0, -90
C0321=25, 10, 5, -180, 0, -90
C0322=25, 10, -8.5, -180, 0, -90
C0323=25, 10, -11, -180, 0, -90
C0324=25, 10, 5, -180, 0, -90
C0325=25, 10, -9, -180, 0, -90
C0326=25, 10, -11.5, -180, 0, -90
C0327=25, 10, 5, -180, 0, -90
C0328=25, 10, -9.5, -180, 0, -90
C0329=25, 10, -12, -180, 0, -90
C0330=25, 10, 5, -180, 0, -90
C0331=25, 10, -10, -180, 0, -90
C0332=25, 10, -12.5, -180, 0, -90
C0333=25, 10, 5, -180, 0, -90
C0334=25, 10, -10.5, -180, 0, -90
C0335=25, 10, -13, -180, 0, -90
C0336=25, 10, 5, -180, 0, -90
C0337=25, 10, -11, -180, 0, -90
C0338=25, 10, -13.5, -180, 0, -90
C0339=25, 10, 5, -180, 0, -90
C0340=25, 10, -11.5, -180, 0, -90
C0341=25, 10, -14, -180, 0, -90
C0342=25, 10, 5, -180, 0, -90
C0343=25, 10, -12, -180, 0, -90
C0344=25, 10, -14.5, -180, 0, -90
C0345=25, 10, 5, -180, 0, -90
C0346=25, 10, -12.5, -180, 0, -90
C0347=25, 10, -15, -180, 0, -90
C0348=25, 10, 5, -180, 0, -90
C0349=25, 10, -13, -180, 0, -90
C0350=25, 10, -15.5, -180, 0, -90
C0351=25, 10, 5, -180, 0, -90
C0352=25, 10, -13.5, -180, 0, -90
C0353=25, 10, -16, -180, 0, -90
C0354=25, 10, 5, -180, 0, -90
C0355=25, 10, -14, -180, 0, -90
C0356=25, 10, -16.5, -180, 0, -90
C0357=25, 10, 5, -180, 0, -90
C0358=25, 10, -14.5, -180, 0, -90
C0359=25, 10, -16.535, -180, 0, -90
C0360=25, 10, 6, -180, 0, -90
C0361=25, 10, 16, -180, 0, -90
C0362=-25, 10, 16, -180, 0, -90
C0363=-25, 10, 16, -180, 0, -90
C0364=-25, 10, 16, -180, 0, -90
C0365=-25, 10, 6, -180, 0, -90
C0366=-25, 10, 5, -180, 0, -90
C0367=-25, 10, -11.425, -180, 0, -90
C0368=-25, 10, -16.535, -180, 0, -90
C0369=-25, 10, 5, -180, 0, -90
C0370=-25, 10, 6, -180, 0, -90
C0371=25, 10, 6, -180, 0, -90
C0372=25, 10, 6, -180, 0, -90
C0373=25, 10, 5, -180, 0, -90
C0374=25, 10, -11.425, -180, 0, -90
C0375=25, 10, -16.535, -180, 0, -90
C0376=25, 10, 5, -180, 0, -90
C0377=25, 10, 6, -180, 0, -90
C0378=25, 10, 16, -180, 0, -90
C0379=-25, 10, 16, -180, 0, -90
C0380=-25, 10, 16, -180, 0, -90
C0381=-25, 10, 16, -180, 0, -90
C0382=-25, 10, 6, -180, 0, -90
C0383=-25, 10, 5, -180, 0, -90
C0384=-25, 10, -5.11, -180, 0, -90
C0385=-25, 10, -16.535, -180, 0, -90
C0386=-25, 10, 5, -180, 0, -90
C0387=-25, 10, 6, -180, 0, -90
C0388=25, 10, 6, -180, 0, -90
C0389=25, 10, 6, -180, 0, -90
C0390=25, 10, 5, -180, 0, -90
C0391=25, 10, -5.11, -180, 0, -90
C0392=25, 10, -16.535, -180, 0, -90
C0393=25, 10, 5, -180, 0, -90
C0394=25, 10, 6, -180, 0, -90
C0395=25, 10, 16, -180, 0, -90
C0396=-25, 10, 16, -180, 0, -90
C0397=-25, 10, 16, -180, 0, -90
C0398=-25, 10, 16, -180, 0, -90
C0399=-25, 10, 6, -180, 0, -90
C0400=-25, 10, 5, -180, 0, -90
C0401=-25, 10, -14, -180, 0, -90
C0402=-25, 10, 5, -180, 0, -90
C0403=-25, 10, 6, -180, 0, -90
C0404=25, 10, 6, -180, 0, -90
C0405=25, 10, 6, -180, 0, -90
C0406=25, 10, 5, -180, 0, -90
C0407=25, 10, -14, -180, 0, -90
C0408=25, 10, 5, -180, 0, -90
C0409=25, 10, 6, -180, 0, -90
C0410=25, 10, 16, -180, 0, -90
C0411=-25, 10, 16, -180, 0, -90
C0412=-25, 10, 16, -180, 0, -90
C0413=-25, 10, 16, -180, 0, -90
C0414=-25, 10, 6, -180, 0, -90
C0415=-25, 10, 5, -180, 0, -90
C0416=-25, 10, -15, -180, 0, -90
C0417=-25, 10, 5, -180, 0, -90
C0418=-25, 10, 6, -180, 0, -90
C0419=25, 10, 6, -180, 0, -90
C0420=25, 10, 6, -180, 0, -90
C0421=25, 10, 5, -180, 0, -90
C0422=25, 10, -15, -180, 0, -90
C0423=25, 10, 5, -180, 0, -90
C0424=25, 10, 6, -180, 0, -90
C0425=25, 10, 16, -180, 0, -90
C0426=-25, 10, 16, -180, 0, -90
C0427=-25, 10, 16, -180, 0, -90
C0428=-25, 10, 16, -180, 0, -90
C0429=-25, 10, 6, -180, 0, -90
C0430=-25, 10, 5, -180, 0, -90
C0431=-25, 10, -15, -180, 0, -90
C0432=-25, 10, 5, -180, 0, -90
C0433=-25, 10, 6, -180, 0, -90
C0434=25, 10, 6, -180, 0, -90
C0435=25, 10, 6, -180, 0, -90
C0436=25, 10, 5, -180, 0, -90
C0437=25, 10, -15, -180, 0, -90
C0438=25, 10, 5, -180, 0, -90
C0439=25, 10, 6, -180, 0, -90
C0440=25, 10, 16, -180, 0, -90
C0441=-43.536, 18.536, 9.9, -180, 0, -90
C0442=-43.536, 18.536, 9.9, -180, 0, -90
C0443=-43.536, 18.536, 9.9, -180, 0, -90
C0444=-43.536, 18.536, -0.1, -180, 0, -90
C0445=-43.536, 18.536, -0.2, -180, 0, -90
C0446=-43.536, 18.536, -0.1, -180, 0, -90
C0447=0, -18.536, -0.1, -180, 0, -90
C0448=0, -18.536, -0.1, -180, 0, -90
C0449=0, -18.536, -0.2, -180, 0, -90
C0450=0, -18.536, -0.1, -180, 0, -90
C0451=0, -18.536, 9.9, -180, 0, -90

' RAPID OUT 2
' T3
MOVL C0000 V=100
MOVL C0001
MOVL C0002
MOVL C0003
MOVL C0004
MOVL C0005 V=40
MOVL C0006 V=100
MOVL C0007
MOVL C0008
MOVL C0009
MOVL C0010 V=40
MOVL C0011 V=100
MOVL C0012

' DWELL AND RAPID OUT 2
MOVL C0013 V=100
MOVL C0014
MOVL C0015
MOVL C0016
MOVL C0017
MOVL C0018 V=40
MOVL C0019 V=100
MOVL C0020
MOVL C0021
MOVL C0022
MOVL C0023 V=40
MOVL C0024 V=100
MOVL C0025

' CHIP BREAKING 2
MOVL C0026 V=100
MOVL C0027
MOVL C0028
MOVL C0029
MOVL C0030
MOVL C0031
MOVL C0032 V=40
MOVL C0033 V=100
MOVL C0034 V=40
MOVL C0035 V=100
MOVL C0036 V=40
MOVL C0037 V=100
MOVL C0038 V=40
MOVL C0039 V=100
MOVL C0040 V=40
MOVL C0041 V=100
MOVL C0042 V=40
MOVL C0043 V=100
MOVL C0044 V=40
MOVL C0045 V=100
MOVL C0046
MOVL C0047 V=40
MOVL C0048 V=100
MOVL C0049 V=40
MOVL C0050 V=100
MOVL C0051 V=40
MOVL C0052 V=100
MOVL C0053 V=40
MOVL C0054 V=100
MOVL C0055 V=40
MOVL C0056 V=100
MOVL C0057 V=40
MOVL C0058 V=100
MOVL C0059 V=40
MOVL C0060 V=100
MOVL C0061 V=40
MOVL C0062 V=100
MOVL C0063 V=40
MOVL C0064 V=100
MOVL C0065 V=40
MOVL C0066 V=100
MOVL C0067
MOVL C0068 V=40
MOVL C0069 V=100
MOVL C0070 V=40
MOVL C0071 V=100
MOVL C0072 V=40
MOVL C0073 V=100
MOVL C0074 V=40
MOVL C0075 V=100
MOVL C0076 V=40
MOVL C0077 V=100
MOVL C0078 V=40
MOVL C0079 V=100
MOVL C0080 V=40
MOVL C0081 V=100
MOVL C0082 V=40
MOVL C0083 V=100
MOVL C0084 V=40
MOVL C0085 V=100
MOVL C0086 V=40
MOVL C0087 V=100
MOVL C0088
MOVL C0089 V=40
MOVL C0090 V=100
MOVL C0091 V=40
MOVL C0092 V=100
MOVL C0093 V=40
MOVL C0094 V=100
MOVL C0095 V=40
MOVL C0096 V=100
MOVL C0097
MOVL C0098
MOVL C0099
MOVL C0100
MOVL C0101 V=40
MOVL C0102 V=100
MOVL C0103 V=40
MOVL C0104 V=100
MOVL C0105 V=40
MOVL C0106 V=100
MOVL C0107 V=40
MOVL C0108 V=100
MOVL C0109 V=40
MOVL C0110 V=100
MOVL C0111 V=40
MOVL C0112 V=100
MOVL C0113 V=40
MOVL C0114 V=100
MOVL C0115
MOVL C0116 V=40
MOVL C0117 V=100
MOVL C0118 V=40
MOVL C0119 V=100
MOVL C0120 V=40
MOVL C0121 V=100
MOVL C0122 V=40
MOVL C0123 V=100
MOVL C0124 V=40
MOVL C0125 V=100
MOVL C0126 V=40
MOVL C0127 V=100
MOVL C0128 V=40
MOVL C0129 V=100
MOVL C0130 V=40
MOVL C0131 V=100
MOVL C0132 V=40
MOVL C0133 V=100
MOVL C0134 V=40
MOVL C0135 V=100
MOVL C0136
MOVL C0137 V=40
MOVL C0138 V=100
MOVL C0139 V=40
MOVL C0140 V=100
MOVL C0141 V=40
MOVL C0142 V=100
MOVL C0143 V=40
MOVL C0144 V=100
MOVL C0145 V=40
MOVL C0146 V=100
MOVL C0147 V=40
MOVL C0148 V=100
MOVL C0149 V=40
MOVL C0150 V=100
MOVL C0151 V=40
MOVL C0152 V=100
MOVL C0153 V=40
MOVL C0154 V=100
MOVL C0155 V=40
MOVL C0156 V=100
MOVL C0157
MOVL C0158 V=40
MOVL C0159 V=100
MOVL C0160 V=40
MOVL C0161 V=100
MOVL C0162 V=40
MOVL C0163 V=100
MOVL C0164 V=40
MOVL C0165 V=100
MOVL C0166

' DEEP DRILLING 2
MOVL C0167 V=100
MOVL C0168
MOVL C0169
MOVL C0170
MOVL C0171
MOVL C0172
MOVL C0173 V=40
MOVL C0174 V=100
MOVL C0175
MOVL C0176 V=40
MOVL C0177 V=100
MOVL C0178
MOVL C0179 V=40
MOVL C0180 V=100
MOVL C0181
MOVL C0182 V=40
MOVL C0183 V=100
MOVL C0184
MOVL C0185 V=40
MOVL C0186 V=100
MOVL C0187
MOVL C0188 V=40
MOVL C0189 V=100
MOVL C0190
MOVL C0191 V=40
MOVL C0192 V=100
MOVL C0193
MOVL C0194 V=40
MOVL C0195 V=100
MOVL C0196
MOVL C0197 V=40
MOVL C0198 V=100
MOVL C0199
MOVL C0200 V=40
MOVL C0201 V=100
MOVL C0202
MOVL C0203 V=40
MOVL C0204 V=100
MOVL C0205
MOVL C0206 V=40
MOVL C0207 V=100
MOVL C0208
MOVL C0209 V=40
MOVL C0210 V=100
MOVL C0211
MOVL C0212 V=40
MOVL C0213 V=100
MOVL C0214
MOVL C0215 V=40
MOVL C0216 V=100
MOVL C0217
MOVL C0218 V=40
MOVL C0219 V=100
MOVL C0220
MOVL C0221 V=40
MOVL C0222 V=100
MOVL C0223
MOVL C0224 V=40
MOVL C0225 V=100
MOVL C0226
MOVL C0227 V=40
MOVL C0228 V=100
MOVL C0229
MOVL C0230 V=40
MOVL C0231 V=100
MOVL C0232
MOVL C0233 V=40
MOVL C0234 V=100
MOVL C0235
MOVL C0236 V=40
MOVL C0237 V=100
MOVL C0238
MOVL C0239 V=40
MOVL C0240 V=100
MOVL C0241
MOVL C0242 V=40
MOVL C0243 V=100
MOVL C0244
MOVL C0245 V=40
MOVL C0246 V=100
MOVL C0247
MOVL C0248 V=40
MOVL C0249 V=100
MOVL C0250
MOVL C0251 V=40
MOVL C0252 V=100
MOVL C0253
MOVL C0254 V=40
MOVL C0255 V=100
MOVL C0256
MOVL C0257 V=40
MOVL C0258 V=100
MOVL C0259
MOVL C0260 V=40
MOVL C0261 V=100
MOVL C0262
MOVL C0263 V=40
MOVL C0264 V=100
MOVL C0265
MOVL C0266
MOVL C0267
MOVL C0268
MOVL C0269 V=40
MOVL C0270 V=100
MOVL C0271
MOVL C0272 V=40
MOVL C0273 V=100
MOVL C0274
MOVL C0275 V=40
MOVL C0276 V=100
MOVL C0277
MOVL C0278 V=40
MOVL C0279 V=100
MOVL C0280
MOVL C0281 V=40
MOVL C0282 V=100
MOVL C0283
MOVL C0284 V=40
MOVL C0285 V=100
MOVL C0286
MOVL C0287 V=40
MOVL C0288 V=100
MOVL C0289
MOVL C0290 V=40
MOVL C0291 V=100
MOVL C0292
MOVL C0293 V=40
MOVL C0294 V=100
MOVL C0295
MOVL C0296 V=40
MOVL C0297 V=100
MOVL C0298
MOVL C0299 V=40
MOVL C0300 V=100
MOVL C0301
MOVL C0302 V=40
MOVL C0303 V=100
MOVL C0304
MOVL C0305 V=40
MOVL C0306 V=100
MOVL C0307
MOVL C0308 V=40
MOVL C0309 V=100
MOVL C0310
MOVL C0311 V=40
MOVL C0312 V=100
MOVL C0313
MOVL C0314 V=40
MOVL C0315 V=100
MOVL C0316
MOVL C0317 V=40
MOVL C0318 V=100
MOVL C0319
MOVL C0320 V=40
MOVL C0321 V=100
MOVL C0322
MOVL C0323 V=40
MOVL C0324 V=100
MOVL C0325
MOVL C0326 V=40
MOVL C0327 V=100
MOVL C0328
MOVL C0329 V=40
MOVL C0330 V=100
MOVL C0331
MOVL C0332 V=40
MOVL C0333 V=100
MOVL C0334
MOVL C0335 V=40
MOVL C0336 V=100
MOVL C0337
MOVL C0338 V=40
MOVL C0339 V=100
MOVL C0340
MOVL C0341 V=40
MOVL C0342 V=100
MOVL C0343
MOVL C0344 V=40
MOVL C0345 V=100
MOVL C0346
MOVL C0347 V=40
MOVL C0348 V=100
MOVL C0349
MOVL C0350 V=40
MOVL C0351 V=100
MOVL C0352
MOVL C0353 V=40
MOVL C0354 V=100
MOVL C0355
MOVL C0356 V=40
MOVL C0357 V=100
MOVL C0358
MOVL C0359 V=40
MOVL C0360 V=100
MOVL C0361

' BREAK-THROUGH DRILLING 2
MOVL C0362 V=100
MOVL C0363
MOVL C0364
MOVL C0365
MOVL C0366
MOVL C0367 V=40
MOVL C0368 V=50
MOVL C0369 V=100
MOVL C0370
MOVL C0371
MOVL C0372
MOVL C0373
MOVL C0374 V=40
MOVL C0375 V=50
MOVL C0376 V=100
MOVL C0377
MOVL C0378

' GUIDED DEEP DRILLING 2
MOVL C0379 V=100
MOVL C0380
MOVL C0381
MOVL C0382
MOVL C0383
MOVL C0384 V=50
MOVL C0385 V=40
MOVL C0386 V=100
MOVL C0387
MOVL C0388
MOVL C0389
MOVL C0390
MOVL C0391 V=50
MOVL C0392 V=40
MOVL C0393 V=100
MOVL C0394
MOVL C0395

' REAMING 2
' T6
MOVL C0396 V=100
MOVL C0397
MOVL C0398
MOVL C0399
MOVL C0400
MOVL C0401 V=20
MOVL C0402
MOVL C0403 V=100
MOVL C0404
MOVL C0405
MOVL C0406
MOVL C0407 V=20
MOVL C0408
MOVL C0409 V=100
MOVL C0410

' BORING 2
' T3
MOVL C0411 V=100
MOVL C0412
MOVL C0413
MOVL C0414
MOVL C0415
MOVL C0416 V=40
MOVL C0417
MOVL C0418 V=100
MOVL C0419
MOVL C0420
MOVL C0421
MOVL C0422 V=40
MOVL C0423
MOVL C0424 V=100
MOVL C0425

' BORING RETRACT FEED
MOVL C0426 V=100
MOVL C0427
MOVL C0428
MOVL C0429
MOVL C0430
MOVL C0431 V=40
MOVL C0432 V=100
MOVL C0433
MOVL C0434
MOVL C0435
MOVL C0436
MOVL C0437 V=40
MOVL C0438 V=100
MOVL C0439
MOVL C0440

' RAPID MOVEMENT TEST 2
' T7
MOVL C0441 V=100
MOVL C0442
MOVL C0443
MOVL C0444
MOVL C0445 V=33.33
MOVL C0446 V=100
MOVL C0447
MOVL C0448
MOVL C0449 V=33.33
MOVL C0450 V=100
MOVL C0451

END
