/JOB
//NAME 1234
//POS
///TOOL 0
///POSTYPE ROBOT
///RECTAN
///RCONF 0,0,0,0,0

C0000=-0.9843, 0.3937, 0.6299, -180, 0, -90
C0001=-0.9843, 0.3937, 0.6299, -180, 0, -90
C0002=-0.9843, 0.3937, 0.6299, -180, 0, -90
C0003=-0.9843, 0.3937, 0.2362, -180, 0, -90
C0004=-0.9843, 0.3937, 0.1969, -180, 0, -90
C0005=-0.9843, 0.3937, -0.651, -180, 0, -90
C0006=-0.9843, 0.3937, 0.2362, -180, 0, -90
C0007=0.9843, 0.3937, 0.2362, -180, 0, -90
C0008=0.9843, 0.3937, 0.2362, -180, 0, -90
C0009=0.9843, 0.3937, 0.1969, -180, 0, -90
C0010=0.9843, 0.3937, -0.651, -180, 0, -90
C0011=0.9843, 0.3937, 0.2362, -180, 0, -90
C0012=0.9843, 0.3937, 0.6299, -180, 0, -90
C0013=-0.9843, 0.3937, 0.6299, -180, 0, -90
C0014=-0.9843, 0.3937, 0.6299, -180, 0, -90
C0015=-0.9843, 0.3937, 0.6299, -180, 0, -90
C0016=-0.9843, 0.3937, 0.2362, -180, 0, -90
C0017=-0.9843, 0.3937, 0.1969, -180, 0, -90
C0018=-0.9843, 0.3937, -0.651, -180, 0, -90
C0019=-0.9843, 0.3937, 0.2362, -180, 0, -90
C0020=0.9843, 0.3937, 0.2362, -180, 0, -90
C0021=0.9843, 0.3937, 0.2362, -180, 0, -90
C0022=0.9843, 0.3937, 0.1969, -180, 0, -90
C0023=0.9843, 0.3937, -0.651, -180, 0, -90
C0024=0.9843, 0.3937, 0.2362, -180, 0, -90
C0025=0.9843, 0.3937, 0.6299, -180, 0, -90
C0026=-0.9843, 0.3937, 0.6299, -180, 0, -90
C0027=-0.9843, 0.3937, 0.6299, -180, 0, -90
C0028=-0.9843, 0.3937, 0.6299, -180, 0, -90
C0029=-0.9843, 0.3937, 0.2362, -180, 0, -90
C0030=-0.9843, 0.3937, 0.1969, -180, 0, -90
C0031=-0.9843, 0.3937, 0.08, -180, 0, -90
C0032=-0.9843, 0.3937, -0.0394, -180, 0, -90
C0033=-0.9843, 0.3937, -0.0353, -180, 0, -90
C0034=-0.9843, 0.3937, -0.0748, -180, 0, -90
C0035=-0.9843, 0.3937, -0.0708, -180, 0, -90
C0036=-0.9843, 0.3937, -0.1063, -180, 0, -90
C0037=-0.9843, 0.3937, -0.1023, -180, 0, -90
C0038=-0.9843, 0.3937, -0.1339, -180, 0, -90
C0039=-0.9843, 0.3937, -0.1298, -180, 0, -90
C0040=-0.9843, 0.3937, -0.1575, -180, 0, -90
C0041=-0.9843, 0.3937, -0.1535, -180, 0, -90
C0042=-0.9843, 0.3937, -0.1772, -180, 0, -90
C0043=-0.9843, 0.3937, -0.1731, -180, 0, -90
C0044=-0.9843, 0.3937, -0.1969, -180, 0, -90
C0045=-0.9843, 0.3937, 0.2362, -180, 0, -90
C0046=-0.9843, 0.3937, -0.1169, -180, 0, -90
C0047=-0.9843, 0.3937, -0.2165, -180, 0, -90
C0048=-0.9843, 0.3937, -0.2125, -180, 0, -90
C0049=-0.9843, 0.3937, -0.2362, -180, 0, -90
C0050=-0.9843, 0.3937, -0.2322, -180, 0, -90
C0051=-0.9843, 0.3937, -0.2559, -180, 0, -90
C0052=-0.9843, 0.3937, -0.2519, -180, 0, -90
C0053=-0.9843, 0.3937, -0.2756, -180, 0, -90
C0054=-0.9843, 0.3937, -0.2716, -180, 0, -90
C0055=-0.9843, 0.3937, -0.2953, -180, 0, -90
C0056=-0.9843, 0.3937, -0.2913, -180, 0, -90
C0057=-0.9843, 0.3937, -0.315, -180, 0, -90
C0058=-0.9843, 0.3937, -0.3109, -180, 0, -90
C0059=-0.9843, 0.3937, -0.3346, -180, 0, -90
C0060=-0.9843, 0.3937, -0.3306, -180, 0, -90
C0061=-0.9843, 0.3937, -0.3543, -180, 0, -90
C0062=-0.9843, 0.3937, -0.3503, -180, 0, -90
C0063=-0.9843, 0.3937, -0.374, -180, 0, -90
C0064=-0.9843, 0.3937, -0.37, -180, 0, -90
C0065=-0.9843, 0.3937, -0.3937, -180, 0, -90
C0066=-0.9843, 0.3937, 0.2362, -180, 0, -90
C0067=-0.9843, 0.3937, -0.3137, -180, 0, -90
C0068=-0.9843, 0.3937, -0.4134, -180, 0, -90
C0069=-0.9843, 0.3937, -0.4094, -180, 0, -90
C0070=-0.9843, 0.3937, -0.4331, -180, 0, -90
C0071=-0.9843, 0.3937, -0.429, -180, 0, -90
C0072=-0.9843, 0.3937, -0.4528, -180, 0, -90
C0073=-0.9843, 0.3937, -0.4487, -180, 0, -90
C0074=-0.9843, 0.3937, -0.4724, -180, 0, -90
C0075=-0.9843, 0.3937, -0.4684, -180, 0, -90
C0076=-0.9843, 0.3937, -0.4921, -180, 0, -90
C0077=-0.9843, 0.3937, -0.4881, -180, 0, -90
C0078=-0.9843, 0.3937, -0.5118, -180, 0, -90
C0079=-0.9843, 0.3937, -0.5078, -180, 0, -90
C0080=-0.9843, 0.3937, -0.5315, -180, 0, -90
C0081=-0.9843, 0.3937, -0.5275, -180, 0, -90
C0082=-0.9843, 0.3937, -0.5512, -180, 0, -90
C0083=-0.9843, 0.3937, -0.5472, -180, 0, -90
C0084=-0.9843, 0.3937, -0.5709, -180, 0, -90
C0085=-0.9843, 0.3937, -0.5668, -180, 0, -90
C0086=-0.9843, 0.3937, -0.5906, -180, 0, -90
C0087=-0.9843, 0.3937, 0.2362, -180, 0, -90
C0088=-0.9843, 0.3937, -0.5106, -180, 0, -90
C0089=-0.9843, 0.3937, -0.6102, -180, 0, -90
C0090=-0.9843, 0.3937, -0.6062, -180, 0, -90
C0091=-0.9843, 0.3937, -0.6299, -180, 0, -90
C0092=-0.9843, 0.3937, -0.6259, -180, 0, -90
C0093=-0.9843, 0.3937, -0.6496, -180, 0, -90
C0094=-0.9843, 0.3937, -0.6456, -180, 0, -90
C0095=-0.9843, 0.3937, -0.651, -180, 0, -90
C0096=-0.9843, 0.3937, 0.2362, -180, 0, -90
C0097=0.9843, 0.3937, 0.2362, -180, 0, -90
C0098=0.9843, 0.3937, 0.2362, -180, 0, -90
C0099=0.9843, 0.3937, 0.1969, -180, 0, -90
C0100=0.9843, 0.3937, 0.08, -180, 0, -90
C0101=0.9843, 0.3937, -0.0394, -180, 0, -90
C0102=0.9843, 0.3937, -0.0353, -180, 0, -90
C0103=0.9843, 0.3937, -0.0748, -180, 0, -90
C0104=0.9843, 0.3937, -0.0708, -180, 0, -90
C0105=0.9843, 0.3937, -0.1063, -180, 0, -90
C0106=0.9843, 0.3937, -0.1023, -180, 0, -90
C0107=0.9843, 0.3937, -0.1339, -180, 0, -90
C0108=0.9843, 0.3937, -0.1298, -180, 0, -90
C0109=0.9843, 0.3937, -0.1575, -180, 0, -90
C0110=0.9843, 0.3937, -0.1535, -180, 0, -90
C0111=0.9843, 0.3937, -0.1772, -180, 0, -90
C0112=0.9843, 0.3937, -0.1731, -180, 0, -90
C0113=0.9843, 0.3937, -0.1969, -180, 0, -90
C0114=0.9843, 0.3937, 0.2362, -180, 0, -90
C0115=0.9843, 0.3937, -0.1169, -180, 0, -90
C0116=0.9843, 0.3937, -0.2165, -180, 0, -90
C0117=0.9843, 0.3937, -0.2125, -180, 0, -90
C0118=0.9843, 0.3937, -0.2362, -180, 0, -90
C0119=0.9843, 0.3937, -0.2322, -180, 0, -90
C0120=0.9843, 0.3937, -0.2559, -180, 0, -90
C0121=0.9843, 0.3937, -0.2519, -180, 0, -90
C0122=0.9843, 0.3937, -0.2756, -180, 0, -90
C0123=0.9843, 0.3937, -0.2716, -180, 0, -90
C0124=0.9843, 0.3937, -0.2953, -180, 0, -90
C0125=0.9843, 0.3937, -0.2913, -180, 0, -90
C0126=0.9843, 0.3937, -0.315, -180, 0, -90
C0127=0.9843, 0.3937, -0.3109, -180, 0, -90
C0128=0.9843, 0.3937, -0.3346, -180, 0, -90
C0129=0.9843, 0.3937, -0.3306, -180, 0, -90
C0130=0.9843, 0.3937, -0.3543, -180, 0, -90
C0131=0.9843, 0.3937, -0.3503, -180, 0, -90
C0132=0.9843, 0.3937, -0.374, -180, 0, -90
C0133=0.9843, 0.3937, -0.37, -180, 0, -90
C0134=0.9843, 0.3937, -0.3937, -180, 0, -90
C0135=0.9843, 0.3937, 0.2362, -180, 0, -90
C0136=0.9843, 0.3937, -0.3137, -180, 0, -90
C0137=0.9843, 0.3937, -0.4134, -180, 0, -90
C0138=0.9843, 0.3937, -0.4094, -180, 0, -90
C0139=0.9843, 0.3937, -0.4331, -180, 0, -90
C0140=0.9843, 0.3937, -0.429, -180, 0, -90
C0141=0.9843, 0.3937, -0.4528, -180, 0, -90
C0142=0.9843, 0.3937, -0.4487, -180, 0, -90
C0143=0.9843, 0.3937, -0.4724, -180, 0, -90
C0144=0.9843, 0.3937, -0.4684, -180, 0, -90
C0145=0.9843, 0.3937, -0.4921, -180, 0, -90
C0146=0.9843, 0.3937, -0.4881, -180, 0, -90
C0147=0.9843, 0.3937, -0.5118, -180, 0, -90
C0148=0.9843, 0.3937, -0.5078, -180, 0, -90
C0149=0.9843, 0.3937, -0.5315, -180, 0, -90
C0150=0.9843, 0.3937, -0.5275, -180, 0, -90
C0151=0.9843, 0.3937, -0.5512, -180, 0, -90
C0152=0.9843, 0.3937, -0.5472, -180, 0, -90
C0153=0.9843, 0.3937, -0.5709, -180, 0, -90
C0154=0.9843, 0.3937, -0.5668, -180, 0, -90
C0155=0.9843, 0.3937, -0.5906, -180, 0, -90
C0156=0.9843, 0.3937, 0.2362, -180, 0, -90
C0157=0.9843, 0.3937, -0.5106, -180, 0, -90
C0158=0.9843, 0.3937, -0.6102, -180, 0, -90
C0159=0.9843, 0.3937, -0.6062, -180, 0, -90
C0160=0.9843, 0.3937, -0.6299, -180, 0, -90
C0161=0.9843, 0.3937, -0.6259, -180, 0, -90
C0162=0.9843, 0.3937, -0.6496, -180, 0, -90
C0163=0.9843, 0.3937, -0.6456, -180, 0, -90
C0164=0.9843, 0.3937, -0.651, -180, 0, -90
C0165=0.9843, 0.3937, 0.2362, -180, 0, -90
C0166=0.9843, 0.3937, 0.6299, -180, 0, -90
C0167=-0.9843, 0.3937, 0.6299, -180, 0, -90
C0168=-0.9843, 0.3937, 0.6299, -180, 0, -90
C0169=-0.9843, 0.3937, 0.6299, -180, 0, -90
C0170=-0.9843, 0.3937, 0.2362, -180, 0, -90
C0171=-0.9843, 0.3937, 0.1969, -180, 0, -90
C0172=-0.9843, 0.3937, 0.08, -180, 0, -90
C0173=-0.9843, 0.3937, -0.0394, -180, 0, -90
C0174=-0.9843, 0.3937, 0.1969, -180, 0, -90
C0175=-0.9843, 0.3937, 0.0406, -180, 0, -90
C0176=-0.9843, 0.3937, -0.0748, -180, 0, -90
C0177=-0.9843, 0.3937, 0.1969, -180, 0, -90
C0178=-0.9843, 0.3937, 0.0052, -180, 0, -90
C0179=-0.9843, 0.3937, -0.1063, -180, 0, -90
C0180=-0.9843, 0.3937, 0.1969, -180, 0, -90
C0181=-0.9843, 0.3937, -0.0263, -180, 0, -90
C0182=-0.9843, 0.3937, -0.1339, -180, 0, -90
C0183=-0.9843, 0.3937, 0.1969, -180, 0, -90
C0184=-0.9843, 0.3937, -0.0539, -180, 0, -90
C0185=-0.9843, 0.3937, -0.1575, -180, 0, -90
C0186=-0.9843, 0.3937, 0.1969, -180, 0, -90
C0187=-0.9843, 0.3937, -0.0775, -180, 0, -90
C0188=-0.9843, 0.3937, -0.1772, -180, 0, -90
C0189=-0.9843, 0.3937, 0.1969, -180, 0, -90
C0190=-0.9843, 0.3937, -0.0972, -180, 0, -90
C0191=-0.9843, 0.3937, -0.1969, -180, 0, -90
C0192=-0.9843, 0.3937, 0.1969, -180, 0, -90
C0193=-0.9843, 0.3937, -0.1169, -180, 0, -90
C0194=-0.9843, 0.3937, -0.2165, -180, 0, -90
C0195=-0.9843, 0.3937, 0.1969, -180, 0, -90
C0196=-0.9843, 0.3937, -0.1365, -180, 0, -90
C0197=-0.9843, 0.3937, -0.2362, -180, 0, -90
C0198=-0.9843, 0.3937, 0.1969, -180, 0, -90
C0199=-0.9843, 0.3937, -0.1562, -180, 0, -90
C0200=-0.9843, 0.3937, -0.2559, -180, 0, -90
C0201=-0.9843, 0.3937, 0.1969, -180, 0, -90
C0202=-0.9843, 0.3937, -0.1759, -180, 0, -90
C0203=-0.9843, 0.3937, -0.2756, -180, 0, -90
C0204=-0.9843, 0.3937, 0.1969, -180, 0, -90
C0205=-0.9843, 0.3937, -0.1956, -180, 0, -90
C0206=-0.9843, 0.3937, -0.2953, -180, 0, -90
C0207=-0.9843, 0.3937, 0.1969, -180, 0, -90
C0208=-0.9843, 0.3937, -0.2153, -180, 0, -90
C0209=-0.9843, 0.3937, -0.315, -180, 0, -90
C0210=-0.9843, 0.3937, 0.1969, -180, 0, -90
C0211=-0.9843, 0.3937, -0.235, -180, 0, -90
C0212=-0.9843, 0.3937, -0.3346, -180, 0, -90
C0213=-0.9843, 0.3937, 0.1969, -180, 0, -90
C0214=-0.9843, 0.3937, -0.2546, -180, 0, -90
C0215=-0.9843, 0.3937, -0.3543, -180, 0, -90
C0216=-0.9843, 0.3937, 0.1969, -180, 0, -90
C0217=-0.9843, 0.3937, -0.2743, -180, 0, -90
C0218=-0.9843, 0.3937, -0.374, -180, 0, -90
C0219=-0.9843, 0.3937, 0.1969, -180, 0, -90
C0220=-0.9843, 0.3937, -0.294, -180, 0, -90
C0221=-0.9843, 0.3937, -0.3937, -180, 0, -90
C0222=-0.9843, 0.3937, 0.1969, -180, 0, -90
C0223=-0.9843, 0.3937, -0.3137, -180, 0, -90
C0224=-0.9843, 0.3937, -0.4134, -180, 0, -90
C0225=-0.9843, 0.3937, 0.1969, -180, 0, -90
C0226=-0.9843, 0.3937, -0.3334, -180, 0, -90
C0227=-0.9843, 0.3937, -0.4331, -180, 0, -90
C0228=-0.9843, 0.3937, 0.1969, -180, 0, -90
C0229=-0.9843, 0.3937, -0.3531, -180, 0, -90
C0230=-0.9843, 0.3937, -0.4528, -180, 0, -90
C0231=-0.9843, 0.3937, 0.1969, -180, 0, -90
C0232=-0.9843, 0.3937, -0.3728, -180, 0, -90
C0233=-0.9843, 0.3937, -0.4724, -180, 0, -90
C0234=-0.9843, 0.3937, 0.1969, -180, 0, -90
C0235=-0.9843, 0.3937, -0.3924, -180, 0, -90
C0236=-0.9843, 0.3937, -0.4921, -180, 0, -90
C0237=-0.9843, 0.3937, 0.1969, -180, 0, -90
C0238=-0.9843, 0.3937, -0.4121, -180, 0, -90
C0239=-0.9843, 0.3937, -0.5118, -180, 0, -90
C0240=-0.9843, 0.3937, 0.1969, -180, 0, -90
C0241=-0.9843, 0.3937, -0.4318, -180, 0, -90
C0242=-0.9843, 0.3937, -0.5315, -180, 0, -90
C0243=-0.9843, 0.3937, 0.1969, -180, 0, -90
C0244=-0.9843, 0.3937, -0.4515, -180, 0, -90
C0245=-0.9843, 0.3937, -0.5512, -180, 0, -90
C0246=-0.9843, 0.3937, 0.1969, -180, 0, -90
C0247=-0.9843, 0.3937, -0.4712, -180, 0, -90
C0248=-0.9843, 0.3937, -0.5709, -180, 0, -90
C0249=-0.9843, 0.3937, 0.1969, -180, 0, -90
C0250=-0.9843, 0.3937, -0.4909, -180, 0, -90
C0251=-0.9843, 0.3937, -0.5906, -180, 0, -90
C0252=-0.9843, 0.3937, 0.1969, -180, 0, -90
C0253=-0.9843, 0.3937, -0.5106, -180, 0, -90
C0254=-0.9843, 0.3937, -0.6102, -180, 0, -90
C0255=-0.9843, 0.3937, 0.1969, -180, 0, -90
C0256=-0.9843, 0.3937, -0.5302, -180, 0, -90
C0257=-0.9843, 0.3937, -0.6299, -180, 0, -90
C0258=-0.9843, 0.3937, 0.1969, -180, 0, -90
C0259=-0.9843, 0.3937, -0.5499, -180, 0, -90
C0260=-0.9843, 0.3937, -0.6496, -180, 0, -90
C0261=-0.9843, 0.3937, 0.1969, -180, 0, -90
C0262=-0.9843, 0.3937, -0.5696, -180, 0, -90
C0263=-0.9843, 0.3937, -0.651, -180, 0, -90
C0264=-0.9843, 0.3937, 0.2362, -180, 0, -90
C0265=0.9843, 0.3937, 0.2362, -180, 0, -90
C0266=0.9843, 0.3937, 0.2362, -180, 0, -90
C0267=0.9843, 0.3937, 0.1969, -180, 0, -90
C0268=0.9843, 0.3937, 0.08, -180, 0, -90
C0269=0.9843, 0.3937, -0.0394, -180, 0, -90
C0270=0.9843, 0.3937, 0.1969, -180, 0, -90
C0271=0.9843, 0.3937, 0.0406, -180, 0, -90
C0272=0.9843, 0.3937, -0.0748, -180, 0, -90
C0273=0.9843, 0.3937, 0.1969, -180, 0, -90
C0274=0.9843, 0.3937, 0.0052, -180, 0, -90
C0275=0.9843, 0.3937, -0.1063, -180, 0, -90
C0276=0.9843, 0.3937, 0.1969, -180, 0, -90
C0277=0.9843, 0.3937, -0.0263, -180, 0, -90
C0278=0.9843, 0.3937, -0.1339, -180, 0, -90
C0279=0.9843, 0.3937, 0.1969, -180, 0, -90
C0280=0.9843, 0.3937, -0.0539, -180, 0, -90
C0281=0.9843, 0.3937, -0.1575, -180, 0, -90
C0282=0.9843, 0.3937, 0.1969, -180, 0, -90
C0283=0.9843, 0.3937, -0.0775, -180, 0, -90
C0284=0.9843, 0.3937, -0.1772, -180, 0, -90
C0285=0.9843, 0.3937, 0.1969, -180, 0, -90
C0286=0.9843, 0.3937, -0.0972, -180, 0, -90
C0287=0.9843, 0.3937, -0.1969, -180, 0, -90
C0288=0.9843, 0.3937, 0.1969, -180, 0, -90
C0289=0.9843, 0.3937, -0.1169, -180, 0, -90
C0290=0.9843, 0.3937, -0.2165, -180, 0, -90
C0291=0.9843, 0.3937, 0.1969, -180, 0, -90
C0292=0.9843, 0.3937, -0.1365, -180, 0, -90
C0293=0.9843, 0.3937, -0.2362, -180, 0, -90
C0294=0.9843, 0.3937, 0.1969, -180, 0, -90
C0295=0.9843, 0.3937, -0.1562, -180, 0, -90
C0296=0.9843, 0.3937, -0.2559, -180, 0, -90
C0297=0.9843, 0.3937, 0.1969, -180, 0, -90
C0298=0.9843, 0.3937, -0.1759, -180, 0, -90
C0299=0.9843, 0.3937, -0.2756, -180, 0, -90
C0300=0.9843, 0.3937, 0.1969, -180, 0, -90
C0301=0.9843, 0.3937, -0.1956, -180, 0, -90
C0302=0.9843, 0.3937, -0.2953, -180, 0, -90
C0303=0.9843, 0.3937, 0.1969, -180, 0, -90
C0304=0.9843, 0.3937, -0.2153, -180, 0, -90
C0305=0.9843, 0.3937, -0.315, -180, 0, -90
C0306=0.9843, 0.3937, 0.1969, -180, 0, -90
C0307=0.9843, 0.3937, -0.235, -180, 0, -90
C0308=0.9843, 0.3937, -0.3346, -180, 0, -90
C0309=0.9843, 0.3937, 0.1969, -180, 0, -90
C0310=0.9843, 0.3937, -0.2546, -180, 0, -90
C0311=0.9843, 0.3937, -0.3543, -180, 0, -90
C0312=0.9843, 0.3937, 0.1969, -180, 0, -90
C0313=0.9843, 0.3937, -0.2743, -180, 0, -90
C0314=0.9843, 0.3937, -0.374, -180, 0, -90
C0315=0.9843, 0.3937, 0.1969, -180, 0, -90
C0316=0.9843, 0.3937, -0.294, -180, 0, -90
C0317=0.9843, 0.3937, -0.3937, -180, 0, -90
C0318=0.9843, 0.3937, 0.1969, -180, 0, -90
C0319=0.9843, 0.3937, -0.3137, -180, 0, -90
C0320=0.9843, 0.3937, -0.4134, -180, 0, -90
C0321=0.9843, 0.3937, 0.1969, -180, 0, -90
C0322=0.9843, 0.3937, -0.3334, -180, 0, -90
C0323=0.9843, 0.3937, -0.4331, -180, 0, -90
C0324=0.9843, 0.3937, 0.1969, -180, 0, -90
C0325=0.9843, 0.3937, -0.3531, -180, 0, -90
C0326=0.9843, 0.3937, -0.4528, -180, 0, -90
C0327=0.9843, 0.3937, 0.1969, -180, 0, -90
C0328=0.9843, 0.3937, -0.3728, -180, 0, -90
C0329=0.9843, 0.3937, -0.4724, -180, 0, -90
C0330=0.9843, 0.3937, 0.1969, -180, 0, -90
C0331=0.9843, 0.3937, -0.3924, -180, 0, -90
C0332=0.9843, 0.3937, -0.4921, -180, 0, -90
C0333=0.9843, 0.3937, 0.1969, -180, 0, -90
C0334=0.9843, 0.3937, -0.4121, -180, 0, -90
C0335=0.9843, 0.3937, -0.5118, -180, 0, -90
C0336=0.9843, 0.3937, 0.1969, -180, 0, -90
C0337=0.9843, 0.3937, -0.4318, -180, 0, -90
C0338=0.9843, 0.3937, -0.5315, -180, 0, -90
C0339=0.9843, 0.3937, 0.1969, -180, 0, -90
C0340=0.9843, 0.3937, -0.4515, -180, 0, -90
C0341=0.9843, 0.3937, -0.5512, -180, 0, -90
C0342=0.9843, 0.3937, 0.1969, -180, 0, -90
C0343=0.9843, 0.3937, -0.4712, -180, 0, -90
C0344=0.9843, 0.3937, -0.5709, -180, 0, -90
C0345=0.9843, 0.3937, 0.1969, -180, 0, -90
C0346=0.9843, 0.3937, -0.4909, -180, 0, -90
C0347=0.9843, 0.3937, -0.5906, -180, 0, -90
C0348=0.9843, 0.3937, 0.1969, -180, 0, -90
C0349=0.9843, 0.3937, -0.5106, -180, 0, -90
C0350=0.9843, 0.3937, -0.6102, -180, 0, -90
C0351=0.9843, 0.3937, 0.1969, -180, 0, -90
C0352=0.9843, 0.3937, -0.5302, -180, 0, -90
C0353=0.9843, 0.3937, -0.6299, -180, 0, -90
C0354=0.9843, 0.3937, 0.1969, -180, 0, -90
C0355=0.9843, 0.3937, -0.5499, -180, 0, -90
C0356=0.9843, 0.3937, -0.6496, -180, 0, -90
C0357=0.9843, 0.3937, 0.1969, -180, 0, -90
C0358=0.9843, 0.3937, -0.5696, -180, 0, -90
C0359=0.9843, 0.3937, -0.651, -180, 0, -90
C0360=0.9843, 0.3937, 0.2362, -180, 0, -90
C0361=0.9843, 0.3937, 0.6299, -180, 0, -90
C0362=-0.9843, 0.3937, 0.6299, -180, 0, -90
C0363=-0.9843, 0.3937, 0.6299, -180, 0, -90
C0364=-0.9843, 0.3937, 0.6299, -180, 0, -90
C0365=-0.9843, 0.3937, 0.2362, -180, 0, -90
C0366=-0.9843, 0.3937, 0.1969, -180, 0, -90
C0367=-0.9843, 0.3937, -0.4498, -180, 0, -90
C0368=-0.9843, 0.3937, -0.651, -180, 0, -90
C0369=-0.9843, 0.3937, 0.1969, -180, 0, -90
C0370=-0.9843, 0.3937, 0.2362, -180, 0, -90
C0371=0.9843, 0.3937, 0.2362, -180, 0, -90
C0372=0.9843, 0.3937, 0.2362, -180, 0, -90
C0373=0.9843, 0.3937, 0.1969, -180, 0, -90
C0374=0.9843, 0.3937, -0.4498, -180, 0, -90
C0375=0.9843, 0.3937, -0.651, -180, 0, -90
C0376=0.9843, 0.3937, 0.1969, -180, 0, -90
C0377=0.9843, 0.3937, 0.2362, -180, 0, -90
C0378=0.9843, 0.3937, 0.6299, -180, 0, -90
C0379=-0.9843, 0.3937, 0.6299, -180, 0, -90
C0380=-0.9843, 0.3937, 0.6299, -180, 0, -90
C0381=-0.9843, 0.3937, 0.6299, -180, 0, -90
C0382=-0.9843, 0.3937, 0.2362, -180, 0, -90
C0383=-0.9843, 0.3937, 0.1969, -180, 0, -90
C0384=-0.9843, 0.3937, -0.2012, -180, 0, -90
C0385=-0.9843, 0.3937, -0.651, -180, 0, -90
C0386=-0.9843, 0.3937, 0.1969, -180, 0, -90
C0387=-0.9843, 0.3937, 0.2362, -180, 0, -90
C0388=0.9843, 0.3937, 0.2362, -180, 0, -90
C0389=0.9843, 0.3937, 0.2362, -180, 0, -90
C0390=0.9843, 0.3937, 0.1969, -180, 0, -90
C0391=0.9843, 0.3937, -0.2012, -180, 0, -90
C0392=0.9843, 0.3937, -0.651, -180, 0, -90
C0393=0.9843, 0.3937, 0.1969, -180, 0, -90
C0394=0.9843, 0.3937, 0.2362, -180, 0, -90
C0395=0.9843, 0.3937, 0.6299, -180, 0, -90
C0396=-0.9843, 0.3937, 0.6299, -180, 0, -90
C0397=-0.9843, 0.3937, 0.6299, -180, 0, -90
C0398=-0.9843, 0.3937, 0.6299, -180, 0, -90
C0399=-0.9843, 0.3937, 0.2362, -180, 0, -90
C0400=-0.9843, 0.3937, 0.1969, -180, 0, -90
C0401=-0.9843, 0.3937, -0.5512, -180, 0, -90
C0402=-0.9843, 0.3937, 0.1969, -180, 0, -90
C0403=-0.9843, 0.3937, 0.2362, -180, 0, -90
C0404=0.9843, 0.3937, 0.2362, -180, 0, -90
C0405=0.9843, 0.3937, 0.2362, -180, 0, -90
C0406=0.9843, 0.3937, 0.1969, -180, 0, -90
C0407=0.9843, 0.3937, -0.5512, -180, 0, -90
C0408=0.9843, 0.3937, 0.1969, -180, 0, -90
C0409=0.9843, 0.3937, 0.2362, -180, 0, -90
C0410=0.9843, 0.3937, 0.6299, -180, 0, -90
C0411=-0.9843, 0.3937, 0.6299, -180, 0, -90
C0412=-0.9843, 0.3937, 0.6299, -180, 0, -90
C0413=-0.9843, 0.3937, 0.6299, -180, 0, -90
C0414=-0.9843, 0.3937, 0.2362, -180, 0, -90
C0415=-0.9843, 0.3937, 0.1969, -180, 0, -90
C0416=-0.9843, 0.3937, -0.5906, -180, 0, -90
C0417=-0.9843, 0.3937, 0.1969, -180, 0, -90
C0418=-0.9843, 0.3937, 0.2362, -180, 0, -90
C0419=0.9843, 0.3937, 0.2362, -180, 0, -90
C0420=0.9843, 0.3937, 0.2362, -180, 0, -90
C0421=0.9843, 0.3937, 0.1969, -180, 0, -90
C0422=0.9843, 0.3937, -0.5906, -180, 0, -90
C0423=0.9843, 0.3937, 0.1969, -180, 0, -90
C0424=0.9843, 0.3937, 0.2362, -180, 0, -90
C0425=0.9843, 0.3937, 0.6299, -180, 0, -90
C0426=-0.9843, 0.3937, 0.6299, -180, 0, -90
C0427=-0.9843, 0.3937, 0.6299, -180, 0, -90
C0428=-0.9843, 0.3937, 0.6299, -180, 0, -90
C0429=-0.9843, 0.3937, 0.2362, -180, 0, -90
C0430=-0.9843, 0.3937, 0.1969, -180, 0, -90
C0431=-0.9843, 0.3937, -0.5906, -180, 0, -90
C0432=-0.9843, 0.3937, 0.1969, -180, 0, -90
C0433=-0.9843, 0.3937, 0.2362, -180, 0, -90
C0434=0.9843, 0.3937, 0.2362, -180, 0, -90
C0435=0.9843, 0.3937, 0.2362, -180, 0, -90
C0436=0.9843, 0.3937, 0.1969, -180, 0, -90
C0437=0.9843, 0.3937, -0.5906, -180, 0, -90
C0438=0.9843, 0.3937, 0.1969, -180, 0, -90
C0439=0.9843, 0.3937, 0.2362, -180, 0, -90
C0440=0.9843, 0.3937, 0.6299, -180, 0, -90
C0441=-1.714, 0.7298, 0.3898, -180, 0, -90
C0442=-1.714, 0.7298, 0.3898, -180, 0, -90
C0443=-1.714, 0.7298, 0.3898, -180, 0, -90
C0444=-1.714, 0.7298, -0.0039, -180, 0, -90
C0445=-1.714, 0.7298, -0.0079, -180, 0, -90
C0446=-1.714, 0.7298, -0.0039, -180, 0, -90
C0447=0, -0.7298, -0.0039, -180, 0, -90
C0448=0, -0.7298, -0.0039, -180, 0, -90
C0449=0, -0.7298, -0.0079, -180, 0, -90
C0450=0, -0.7298, -0.0039, -180, 0, -90
C0451=0, -0.7298, 0.3898, -180, 0, -90

' RAPID OUT 2
' T3
MOVL C0000 V=10
MOVL C0001
MOVL C0002
MOVL C0003
MOVL C0004
MOVL C0005 V=1.575
MOVL C0006 V=10
MOVL C0007
MOVL C0008
MOVL C0009
MOVL C0010 V=1.575
MOVL C0011 V=10
MOVL C0012

' DWELL AND RAPID OUT 2
MOVL C0013 V=10
MOVL C0014
MOVL C0015
MOVL C0016
MOVL C0017
MOVL C0018 V=1.575
MOVL C0019 V=10
MOVL C0020
MOVL C0021
MOVL C0022
MOVL C0023 V=1.575
MOVL C0024 V=10
MOVL C0025

' CHIP BREAKING 2
MOVL C0026 V=10
MOVL C0027
MOVL C0028
MOVL C0029
MOVL C0030
MOVL C0031
MOVL C0032 V=1.575
MOVL C0033 V=10
MOVL C0034 V=1.575
MOVL C0035 V=10
MOVL C0036 V=1.575
MOVL C0037 V=10
MOVL C0038 V=1.575
MOVL C0039 V=10
MOVL C0040 V=1.575
MOVL C0041 V=10
MOVL C0042 V=1.575
MOVL C0043 V=10
MOVL C0044 V=1.575
MOVL C0045 V=10
MOVL C0046
MOVL C0047 V=1.575
MOVL C0048 V=10
MOVL C0049 V=1.575
MOVL C0050 V=10
MOVL C0051 V=1.575
MOVL C0052 V=10
MOVL C0053 V=1.575
MOVL C0054 V=10
MOVL C0055 V=1.575
MOVL C0056 V=10
MOVL C0057 V=1.575
MOVL C0058 V=10
MOVL C0059 V=1.575
MOVL C0060 V=10
MOVL C0061 V=1.575
MOVL C0062 V=10
MOVL C0063 V=1.575
MOVL C0064 V=10
MOVL C0065 V=1.575
MOVL C0066 V=10
MOVL C0067
MOVL C0068 V=1.575
MOVL C0069 V=10
MOVL C0070 V=1.575
MOVL C0071 V=10
MOVL C0072 V=1.575
MOVL C0073 V=10
MOVL C0074 V=1.575
MOVL C0075 V=10
MOVL C0076 V=1.575
MOVL C0077 V=10
MOVL C0078 V=1.575
MOVL C0079 V=10
MOVL C0080 V=1.575
MOVL C0081 V=10
MOVL C0082 V=1.575
MOVL C0083 V=10
MOVL C0084 V=1.575
MOVL C0085 V=10
MOVL C0086 V=1.575
MOVL C0087 V=10
MOVL C0088
MOVL C0089 V=1.575
MOVL C0090 V=10
MOVL C0091 V=1.575
MOVL C0092 V=10
MOVL C0093 V=1.575
MOVL C0094 V=10
MOVL C0095 V=1.575
MOVL C0096 V=10
MOVL C0097
MOVL C0098
MOVL C0099
MOVL C0100
MOVL C0101 V=1.575
MOVL C0102 V=10
MOVL C0103 V=1.575
MOVL C0104 V=10
MOVL C0105 V=1.575
MOVL C0106 V=10
MOVL C0107 V=1.575
MOVL C0108 V=10
MOVL C0109 V=1.575
MOVL C0110 V=10
MOVL C0111 V=1.575
MOVL C0112 V=10
MOVL C0113 V=1.575
MOVL C0114 V=10
MOVL C0115
MOVL C0116 V=1.575
MOVL C0117 V=10
MOVL C0118 V=1.575
MOVL C0119 V=10
MOVL C0120 V=1.575
MOVL C0121 V=10
MOVL C0122 V=1.575
MOVL C0123 V=10
MOVL C0124 V=1.575
MOVL C0125 V=10
MOVL C0126 V=1.575
MOVL C0127 V=10
MOVL C0128 V=1.575
MOVL C0129 V=10
MOVL C0130 V=1.575
MOVL C0131 V=10
MOVL C0132 V=1.575
MOVL C0133 V=10
MOVL C0134 V=1.575
MOVL C0135 V=10
MOVL C0136
MOVL C0137 V=1.575
MOVL C0138 V=10
MOVL C0139 V=1.575
MOVL C0140 V=10
MOVL C0141 V=1.575
MOVL C0142 V=10
MOVL C0143 V=1.575
MOVL C0144 V=10
MOVL C0145 V=1.575
MOVL C0146 V=10
MOVL C0147 V=1.575
MOVL C0148 V=10
MOVL C0149 V=1.575
MOVL C0150 V=10
MOVL C0151 V=1.575
MOVL C0152 V=10
MOVL C0153 V=1.575
MOVL C0154 V=10
MOVL C0155 V=1.575
MOVL C0156 V=10
MOVL C0157
MOVL C0158 V=1.575
MOVL C0159 V=10
MOVL C0160 V=1.575
MOVL C0161 V=10
MOVL C0162 V=1.575
MOVL C0163 V=10
MOVL C0164 V=1.575
MOVL C0165 V=10
MOVL C0166

' DEEP DRILLING 2
MOVL C0167 V=10
MOVL C0168
MOVL C0169
MOVL C0170
MOVL C0171
MOVL C0172
MOVL C0173 V=1.575
MOVL C0174 V=10
MOVL C0175
MOVL C0176 V=1.575
MOVL C0177 V=10
MOVL C0178
MOVL C0179 V=1.575
MOVL C0180 V=10
MOVL C0181
MOVL C0182 V=1.575
MOVL C0183 V=10
MOVL C0184
MOVL C0185 V=1.575
MOVL C0186 V=10
MOVL C0187
MOVL C0188 V=1.575
MOVL C0189 V=10
MOVL C0190
MOVL C0191 V=1.575
MOVL C0192 V=10
MOVL C0193
MOVL C0194 V=1.575
MOVL C0195 V=10
MOVL C0196
MOVL C0197 V=1.575
MOVL C0198 V=10
MOVL C0199
MOVL C0200 V=1.575
MOVL C0201 V=10
MOVL C0202
MOVL C0203 V=1.575
MOVL C0204 V=10
MOVL C0205
MOVL C0206 V=1.575
MOVL C0207 V=10
MOVL C0208
MOVL C0209 V=1.575
MOVL C0210 V=10
MOVL C0211
MOVL C0212 V=1.575
MOVL C0213 V=10
MOVL C0214
MOVL C0215 V=1.575
MOVL C0216 V=10
MOVL C0217
MOVL C0218 V=1.575
MOVL C0219 V=10
MOVL C0220
MOVL C0221 V=1.575
MOVL C0222 V=10
MOVL C0223
MOVL C0224 V=1.575
MOVL C0225 V=10
MOVL C0226
MOVL C0227 V=1.575
MOVL C0228 V=10
MOVL C0229
MOVL C0230 V=1.575
MOVL C0231 V=10
MOVL C0232
MOVL C0233 V=1.575
MOVL C0234 V=10
MOVL C0235
MOVL C0236 V=1.575
MOVL C0237 V=10
MOVL C0238
MOVL C0239 V=1.575
MOVL C0240 V=10
MOVL C0241
MOVL C0242 V=1.575
MOVL C0243 V=10
MOVL C0244
MOVL C0245 V=1.575
MOVL C0246 V=10
MOVL C0247
MOVL C0248 V=1.575
MOVL C0249 V=10
MOVL C0250
MOVL C0251 V=1.575
MOVL C0252 V=10
MOVL C0253
MOVL C0254 V=1.575
MOVL C0255 V=10
MOVL C0256
MOVL C0257 V=1.575
MOVL C0258 V=10
MOVL C0259
MOVL C0260 V=1.575
MOVL C0261 V=10
MOVL C0262
MOVL C0263 V=1.575
MOVL C0264 V=10
MOVL C0265
MOVL C0266
MOVL C0267
MOVL C0268
MOVL C0269 V=1.575
MOVL C0270 V=10
MOVL C0271
MOVL C0272 V=1.575
MOVL C0273 V=10
MOVL C0274
MOVL C0275 V=1.575
MOVL C0276 V=10
MOVL C0277
MOVL C0278 V=1.575
MOVL C0279 V=10
MOVL C0280
MOVL C0281 V=1.575
MOVL C0282 V=10
MOVL C0283
MOVL C0284 V=1.575
MOVL C0285 V=10
MOVL C0286
MOVL C0287 V=1.575
MOVL C0288 V=10
MOVL C0289
MOVL C0290 V=1.575
MOVL C0291 V=10
MOVL C0292
MOVL C0293 V=1.575
MOVL C0294 V=10
MOVL C0295
MOVL C0296 V=1.575
MOVL C0297 V=10
MOVL C0298
MOVL C0299 V=1.575
MOVL C0300 V=10
MOVL C0301
MOVL C0302 V=1.575
MOVL C0303 V=10
MOVL C0304
MOVL C0305 V=1.575
MOVL C0306 V=10
MOVL C0307
MOVL C0308 V=1.575
MOVL C0309 V=10
MOVL C0310
MOVL C0311 V=1.575
MOVL C0312 V=10
MOVL C0313
MOVL C0314 V=1.575
MOVL C0315 V=10
MOVL C0316
MOVL C0317 V=1.575
MOVL C0318 V=10
MOVL C0319
MOVL C0320 V=1.575
MOVL C0321 V=10
MOVL C0322
MOVL C0323 V=1.575
MOVL C0324 V=10
MOVL C0325
MOVL C0326 V=1.575
MOVL C0327 V=10
MOVL C0328
MOVL C0329 V=1.575
MOVL C0330 V=10
MOVL C0331
MOVL C0332 V=1.575
MOVL C0333 V=10
MOVL C0334
MOVL C0335 V=1.575
MOVL C0336 V=10
MOVL C0337
MOVL C0338 V=1.575
MOVL C0339 V=10
MOVL C0340
MOVL C0341 V=1.575
MOVL C0342 V=10
MOVL C0343
MOVL C0344 V=1.575
MOVL C0345 V=10
MOVL C0346
MOVL C0347 V=1.575
MOVL C0348 V=10
MOVL C0349
MOVL C0350 V=1.575
MOVL C0351 V=10
MOVL C0352
MOVL C0353 V=1.575
MOVL C0354 V=10
MOVL C0355
MOVL C0356 V=1.575
MOVL C0357 V=10
MOVL C0358
MOVL C0359 V=1.575
MOVL C0360 V=10
MOVL C0361

' BREAK-THROUGH DRILLING 2
MOVL C0362 V=10
MOVL C0363
MOVL C0364
MOVL C0365
MOVL C0366
MOVL C0367 V=1.575
MOVL C0368 V=1.969
MOVL C0369 V=3.937
MOVL C0370 V=10
MOVL C0371
MOVL C0372
MOVL C0373
MOVL C0374 V=1.575
MOVL C0375 V=1.969
MOVL C0376 V=3.937
MOVL C0377 V=10
MOVL C0378

' GUIDED DEEP DRILLING 2
MOVL C0379 V=10
MOVL C0380
MOVL C0381
MOVL C0382
MOVL C0383
MOVL C0384 V=1.969
MOVL C0385 V=1.575
MOVL C0386 V=3.937
MOVL C0387 V=10
MOVL C0388
MOVL C0389
MOVL C0390
MOVL C0391 V=1.969
MOVL C0392 V=1.575
MOVL C0393 V=3.937
MOVL C0394 V=10
MOVL C0395

' REAMING 2
' T6
MOVL C0396 V=10
MOVL C0397
MOVL C0398
MOVL C0399
MOVL C0400
MOVL C0401 V=0.787
MOVL C0402
MOVL C0403 V=10
MOVL C0404
MOVL C0405
MOVL C0406
MOVL C0407 V=0.787
MOVL C0408
MOVL C0409 V=10
MOVL C0410

' BORING 2
' T3
MOVL C0411 V=10
MOVL C0412
MOVL C0413
MOVL C0414
MOVL C0415
MOVL C0416 V=1.575
MOVL C0417
MOVL C0418 V=10
MOVL C0419
MOVL C0420
MOVL C0421
MOVL C0422 V=1.575
MOVL C0423
MOVL C0424 V=10
MOVL C0425

' BORING RETRACT FEED
MOVL C0426 V=10
MOVL C0427
MOVL C0428
MOVL C0429
MOVL C0430
MOVL C0431 V=1.575
MOVL C0432 V=3.937
MOVL C0433 V=10
MOVL C0434
MOVL C0435
MOVL C0436
MOVL C0437 V=1.575
MOVL C0438 V=3.937
MOVL C0439 V=10
MOVL C0440

' RAPID MOVEMENT TEST 2
' T7
MOVL C0441 V=10
MOVL C0442
MOVL C0443
MOVL C0444
MOVL C0445 V=1.312
MOVL C0446 V=10
MOVL C0447
MOVL C0448
MOVL C0449 V=1.312
MOVL C0450 V=10
MOVL C0451

END
